DEF DRAW()
$BWDSTART = FALSE
PDAT_ACT=PDEFAULT
LDAT_ACT=LDEFAULT
FDAT_ACT=FHOME
BAS(#PTP_PARAMS,100)
BAS(#CP_PARAMS,2)
$H_POS=XHOME
$ORI_TYPE=#CONSTANT
$CIRC_TYPE=#BASE
GLOBAL INTERRUPT DECL 3 WHEN $STOPMESS==TRUE DO IR_STOPM()
INTERRUPT ON 3
BAS(#INITMOV,0)

$ACT_TOOL=2
$TOOL=TOOL_DATA[2]

PTP XHOME

LIN {X 491.136, Y -607.528, Z 667.785, A 179.210, B 0.540, C -122.650, S 2, T 34} C_DIS
LIN {X 491.103, Y -611.738, Z 665.088, A 179.210, B 0.540, C -122.650, S 2, T 34} C_DIS
LIN {X 491.109, Y -611.553, Z 664.800, A 179.210, B 0.540, C -122.650, S 2, T 34} C_DIS
LIN {X 491.455, Y -611.374, Z 664.516, A 179.210, B 0.540, C -122.650, S 2, T 34} C_DIS
LIN {X 491.461, Y -611.190, Z 664.228, A 179.210, B 0.540, C -122.650, S 2, T 34} C_DIS
LIN {X 491.466, Y -611.005, Z 663.941, A 179.210, B 0.540, C -122.650, S 2, T 34} C_DIS
LIN {X 491.471, Y -610.821, Z 663.653, A 179.210, B 0.540, C -122.650, S 2, T 34} C_DIS
LIN {X 491.476, Y -610.637, Z 663.365, A 179.210, B 0.540, C -122.650, S 2, T 34} C_DIS
LIN {X 491.482, Y -610.453, Z 663.078, A 179.210, B 0.540, C -122.650, S 2, T 34} C_DIS
LIN {X 491.145, Y -610.264, Z 662.787, A 179.210, B 0.540, C -122.650, S 2, T 34} C_DIS
LIN {X 491.151, Y -610.079, Z 662.499, A 179.210, B 0.540, C -122.650, S 2, T 34} C_DIS
LIN {X 491.156, Y -609.895, Z 662.212, A 179.210, B 0.540, C -122.650, S 2, T 34} C_DIS
LIN {X 491.161, Y -609.711, Z 661.924, A 179.210, B 0.540, C -122.650, S 2, T 34} C_DIS
LIN {X 491.166, Y -609.527, Z 661.637, A 179.210, B 0.540, C -122.650, S 2, T 34} C_DIS
LIN {X 490.830, Y -609.338, Z 661.346, A 179.210, B 0.540, C -122.650, S 2, T 34} C_DIS
LIN {X 490.489, Y -609.333, Z 661.343, A 179.210, B 0.540, C -122.650, S 2, T 34} C_DIS
LIN {X 490.147, Y -609.328, Z 661.339, A 179.210, B 0.540, C -122.650, S 2, T 34} C_DIS
LIN {X 489.806, Y -609.324, Z 661.336, A 179.210, B 0.540, C -122.650, S 2, T 34} C_DIS
LIN {X 489.464, Y -609.319, Z 661.333, A 179.210, B 0.540, C -122.650, S 2, T 34} C_DIS
LIN {X 489.122, Y -609.314, Z 661.330, A 179.210, B 0.540, C -122.650, S 2, T 34} C_DIS
LIN {X 488.786, Y -609.125, Z 661.039, A 179.210, B 0.540, C -122.650, S 2, T 34} C_DIS
LIN {X 488.786, Y -609.125, Z 661.039, A 179.210, B 0.540, C -122.650, S 2, T 34} C_DIS
LIN {X 488.819, Y -604.915, Z 663.736, A 179.210, B 0.540, C -122.650, S 2, T 34} C_DIS
LIN {X 488.435, Y -606.385, Z 666.034, A 179.210, B 0.540, C -122.650, S 2, T 34} C_DIS
LIN {X 488.403, Y -610.594, Z 663.336, A 179.210, B 0.540, C -122.650, S 2, T 34} C_DIS
LIN {X 488.056, Y -610.774, Z 663.621, A 179.210, B 0.540, C -122.650, S 2, T 34} C_DIS
LIN {X 487.714, Y -610.769, Z 663.618, A 179.210, B 0.540, C -122.650, S 2, T 34} C_DIS
LIN {X 487.368, Y -610.949, Z 663.902, A 179.210, B 0.540, C -122.650, S 2, T 34} C_DIS
LIN {X 487.026, Y -610.944, Z 663.899, A 179.210, B 0.540, C -122.650, S 2, T 34} C_DIS
LIN {X 486.685, Y -610.939, Z 663.896, A 179.210, B 0.540, C -122.650, S 2, T 34} C_DIS
LIN {X 486.338, Y -611.119, Z 664.180, A 179.210, B 0.540, C -122.650, S 2, T 34} C_DIS
LIN {X 485.996, Y -611.114, Z 664.177, A 179.210, B 0.540, C -122.650, S 2, T 34} C_DIS
LIN {X 485.655, Y -611.109, Z 664.174, A 179.210, B 0.540, C -122.650, S 2, T 34} C_DIS
LIN {X 485.313, Y -611.105, Z 664.170, A 179.210, B 0.540, C -122.650, S 2, T 34} C_DIS
LIN {X 484.972, Y -611.100, Z 664.167, A 179.210, B 0.540, C -122.650, S 2, T 34} C_DIS
LIN {X 484.635, Y -610.911, Z 663.876, A 179.210, B 0.540, C -122.650, S 2, T 34} C_DIS
LIN {X 484.641, Y -610.727, Z 663.589, A 179.210, B 0.540, C -122.650, S 2, T 34} C_DIS
LIN {X 484.646, Y -610.543, Z 663.301, A 179.210, B 0.540, C -122.650, S 2, T 34} C_DIS
LIN {X 484.651, Y -610.358, Z 663.013, A 179.210, B 0.540, C -122.650, S 2, T 34} C_DIS
LIN {X 484.656, Y -610.174, Z 662.726, A 179.210, B 0.540, C -122.650, S 2, T 34} C_DIS
LIN {X 485.003, Y -609.995, Z 662.442, A 179.210, B 0.540, C -122.650, S 2, T 34} C_DIS
LIN {X 485.008, Y -609.810, Z 662.154, A 179.210, B 0.540, C -122.650, S 2, T 34} C_DIS
LIN {X 485.014, Y -609.626, Z 661.866, A 179.210, B 0.540, C -122.650, S 2, T 34} C_DIS
LIN {X 485.019, Y -609.442, Z 661.579, A 179.210, B 0.540, C -122.650, S 2, T 34} C_DIS
LIN {X 485.366, Y -609.262, Z 661.294, A 179.210, B 0.540, C -122.650, S 2, T 34} C_DIS
LIN {X 485.371, Y -609.078, Z 661.007, A 179.210, B 0.540, C -122.650, S 2, T 34} C_DIS
LIN {X 485.718, Y -608.899, Z 660.722, A 179.210, B 0.540, C -122.650, S 2, T 34} C_DIS
LIN {X 486.064, Y -608.719, Z 660.438, A 179.210, B 0.540, C -122.650, S 2, T 34} C_DIS
LIN {X 486.401, Y -608.908, Z 660.729, A 179.210, B 0.540, C -122.650, S 2, T 34} C_DIS
LIN {X 486.742, Y -608.913, Z 660.732, A 179.210, B 0.540, C -122.650, S 2, T 34} C_DIS
LIN {X 487.084, Y -608.918, Z 660.735, A 179.210, B 0.540, C -122.650, S 2, T 34} C_DIS
LIN {X 487.420, Y -609.107, Z 661.026, A 179.210, B 0.540, C -122.650, S 2, T 34} C_DIS
LIN {X 487.415, Y -609.291, Z 661.314, A 179.210, B 0.540, C -122.650, S 2, T 34} C_DIS
LIN {X 487.415, Y -609.291, Z 661.314, A 179.210, B 0.540, C -122.650, S 2, T 34} C_DIS
LIN {X 487.447, Y -605.081, Z 664.011, A 179.210, B 0.540, C -122.650, S 2, T 34} C_DIS
LIN {X 468.658, Y -605.006, Z 664.122, A 179.210, B 0.540, C -122.650, S 2, T 34} C_DIS
LIN {X 468.625, Y -609.216, Z 661.424, A 179.210, B 0.540, C -122.650, S 2, T 34} C_DIS
LIN {X 468.972, Y -609.036, Z 661.140, A 179.210, B 0.540, C -122.650, S 2, T 34} C_DIS
LIN {X 469.314, Y -609.041, Z 661.143, A 179.210, B 0.540, C -122.650, S 2, T 34} C_DIS
LIN {X 469.655, Y -609.046, Z 661.146, A 179.210, B 0.540, C -122.650, S 2, T 34} C_DIS
LIN {X 469.997, Y -609.051, Z 661.150, A 179.210, B 0.540, C -122.650, S 2, T 34} C_DIS
LIN {X 470.333, Y -609.239, Z 661.440, A 179.210, B 0.540, C -122.650, S 2, T 34} C_DIS
LIN {X 470.328, Y -609.424, Z 661.728, A 179.210, B 0.540, C -122.650, S 2, T 34} C_DIS
LIN {X 470.323, Y -609.608, Z 662.016, A 179.210, B 0.540, C -122.650, S 2, T 34} C_DIS
LIN {X 470.317, Y -609.792, Z 662.303, A 179.210, B 0.540, C -122.650, S 2, T 34} C_DIS
LIN {X 470.312, Y -609.976, Z 662.591, A 179.210, B 0.540, C -122.650, S 2, T 34} C_DIS
LIN {X 470.307, Y -610.161, Z 662.878, A 179.210, B 0.540, C -122.650, S 2, T 34} C_DIS
LIN {X 470.302, Y -610.345, Z 663.166, A 179.210, B 0.540, C -122.650, S 2, T 34} C_DIS
LIN {X 470.296, Y -610.529, Z 663.453, A 179.210, B 0.540, C -122.650, S 2, T 34} C_DIS
LIN {X 469.949, Y -610.709, Z 663.738, A 179.210, B 0.540, C -122.650, S 2, T 34} C_DIS
LIN {X 469.944, Y -610.893, Z 664.025, A 179.210, B 0.540, C -122.650, S 2, T 34} C_DIS
LIN {X 469.939, Y -611.077, Z 664.313, A 179.210, B 0.540, C -122.650, S 2, T 34} C_DIS
LIN {X 469.934, Y -611.261, Z 664.601, A 179.210, B 0.540, C -122.650, S 2, T 34} C_DIS
LIN {X 469.928, Y -611.446, Z 664.888, A 179.210, B 0.540, C -122.650, S 2, T 34} C_DIS
LIN {X 469.923, Y -611.630, Z 665.176, A 179.210, B 0.540, C -122.650, S 2, T 34} C_DIS
LIN {X 469.918, Y -611.814, Z 665.463, A 179.210, B 0.540, C -122.650, S 2, T 34} C_DIS
LIN {X 470.254, Y -612.003, Z 665.754, A 179.210, B 0.540, C -122.650, S 2, T 34} C_DIS
LIN {X 470.591, Y -612.192, Z 666.045, A 179.210, B 0.540, C -122.650, S 2, T 34} C_DIS
LIN {X 470.932, Y -612.197, Z 666.048, A 179.210, B 0.540, C -122.650, S 2, T 34} C_DIS
LIN {X 471.274, Y -612.201, Z 666.051, A 179.210, B 0.540, C -122.650, S 2, T 34} C_DIS
LIN {X 471.615, Y -612.206, Z 666.055, A 179.210, B 0.540, C -122.650, S 2, T 34} C_DIS
LIN {X 471.957, Y -612.211, Z 666.058, A 179.210, B 0.540, C -122.650, S 2, T 34} C_DIS
LIN {X 472.298, Y -612.215, Z 666.061, A 179.210, B 0.540, C -122.650, S 2, T 34} C_DIS
LIN {X 472.640, Y -612.220, Z 666.064, A 179.210, B 0.540, C -122.650, S 2, T 34} C_DIS
LIN {X 472.981, Y -612.225, Z 666.068, A 179.210, B 0.540, C -122.650, S 2, T 34} C_DIS
LIN {X 473.323, Y -612.230, Z 666.071, A 179.210, B 0.540, C -122.650, S 2, T 34} C_DIS
LIN {X 473.664, Y -612.234, Z 666.074, A 179.210, B 0.540, C -122.650, S 2, T 34} C_DIS
LIN {X 474.006, Y -612.239, Z 666.077, A 179.210, B 0.540, C -122.650, S 2, T 34} C_DIS
LIN {X 474.353, Y -612.059, Z 665.793, A 179.210, B 0.540, C -122.650, S 2, T 34} C_DIS
LIN {X 474.699, Y -611.880, Z 665.508, A 179.210, B 0.540, C -122.650, S 2, T 34} C_DIS
LIN {X 474.705, Y -611.696, Z 665.221, A 179.210, B 0.540, C -122.650, S 2, T 34} C_DIS
LIN {X 475.051, Y -611.516, Z 664.936, A 179.210, B 0.540, C -122.650, S 2, T 34} C_DIS
LIN {X 475.057, Y -611.332, Z 664.649, A 179.210, B 0.540, C -122.650, S 2, T 34} C_DIS
LIN {X 475.062, Y -611.148, Z 664.361, A 179.210, B 0.540, C -122.650, S 2, T 34} C_DIS
LIN {X 475.067, Y -610.963, Z 664.074, A 179.210, B 0.540, C -122.650, S 2, T 34} C_DIS
LIN {X 475.414, Y -610.784, Z 663.789, A 179.210, B 0.540, C -122.650, S 2, T 34} C_DIS
LIN {X 475.419, Y -610.600, Z 663.502, A 179.210, B 0.540, C -122.650, S 2, T 34} C_DIS
LIN {X 475.424, Y -610.416, Z 663.214, A 179.210, B 0.540, C -122.650, S 2, T 34} C_DIS
LIN {X 475.430, Y -610.231, Z 662.927, A 179.210, B 0.540, C -122.650, S 2, T 34} C_DIS
LIN {X 475.435, Y -610.047, Z 662.639, A 179.210, B 0.540, C -122.650, S 2, T 34} C_DIS
LIN {X 475.099, Y -609.858, Z 662.348, A 179.210, B 0.540, C -122.650, S 2, T 34} C_DIS
LIN {X 474.762, Y -609.669, Z 662.057, A 179.210, B 0.540, C -122.650, S 2, T 34} C_DIS
LIN {X 474.421, Y -609.664, Z 662.054, A 179.210, B 0.540, C -122.650, S 2, T 34} C_DIS
LIN {X 474.085, Y -609.476, Z 661.763, A 179.210, B 0.540, C -122.650, S 2, T 34} C_DIS
LIN {X 473.743, Y -609.471, Z 661.760, A 179.210, B 0.540, C -122.650, S 2, T 34} C_DIS
LIN {X 473.407, Y -609.282, Z 661.469, A 179.210, B 0.540, C -122.650, S 2, T 34} C_DIS
LIN {X 473.065, Y -609.277, Z 661.466, A 179.210, B 0.540, C -122.650, S 2, T 34} C_DIS
LIN {X 472.724, Y -609.272, Z 661.463, A 179.210, B 0.540, C -122.650, S 2, T 34} C_DIS
LIN {X 472.382, Y -609.268, Z 661.460, A 179.210, B 0.540, C -122.650, S 2, T 34} C_DIS
LIN {X 472.046, Y -609.079, Z 661.169, A 179.210, B 0.540, C -122.650, S 2, T 34} C_DIS
LIN {X 471.704, Y -609.074, Z 661.166, A 179.210, B 0.540, C -122.650, S 2, T 34} C_DIS
LIN {X 471.363, Y -609.069, Z 661.162, A 179.210, B 0.540, C -122.650, S 2, T 34} C_DIS
LIN {X 471.021, Y -609.065, Z 661.159, A 179.210, B 0.540, C -122.650, S 2, T 34} C_DIS
LIN {X 470.680, Y -609.060, Z 661.156, A 179.210, B 0.540, C -122.650, S 2, T 34} C_DIS
LIN {X 470.338, Y -609.055, Z 661.153, A 179.210, B 0.540, C -122.650, S 2, T 34} C_DIS
LIN {X 470.338, Y -609.055, Z 661.153, A 179.210, B 0.540, C -122.650, S 2, T 34} C_DIS
LIN {X 470.371, Y -604.845, Z 663.850, A 179.210, B 0.540, C -122.650, S 2, T 34} C_DIS
LIN {X 491.204, Y -605.133, Z 664.047, A 179.210, B 0.540, C -122.650, S 2, T 34} C_DIS
LIN {X 491.172, Y -609.343, Z 661.349, A 179.210, B 0.540, C -122.650, S 2, T 34} C_DIS
LIN {X 491.518, Y -609.163, Z 661.065, A 179.210, B 0.540, C -122.650, S 2, T 34} C_DIS
LIN {X 491.860, Y -609.168, Z 661.068, A 179.210, B 0.540, C -122.650, S 2, T 34} C_DIS
LIN {X 492.202, Y -609.172, Z 661.071, A 179.210, B 0.540, C -122.650, S 2, T 34} C_DIS
LIN {X 492.543, Y -609.177, Z 661.074, A 179.210, B 0.540, C -122.650, S 2, T 34} C_DIS
LIN {X 492.885, Y -609.182, Z 661.078, A 179.210, B 0.540, C -122.650, S 2, T 34} C_DIS
LIN {X 493.226, Y -609.187, Z 661.081, A 179.210, B 0.540, C -122.650, S 2, T 34} C_DIS
LIN {X 493.568, Y -609.191, Z 661.084, A 179.210, B 0.540, C -122.650, S 2, T 34} C_DIS
LIN {X 493.909, Y -609.196, Z 661.087, A 179.210, B 0.540, C -122.650, S 2, T 34} C_DIS
LIN {X 494.251, Y -609.201, Z 661.091, A 179.210, B 0.540, C -122.650, S 2, T 34} C_DIS
LIN {X 494.597, Y -609.021, Z 660.806, A 179.210, B 0.540, C -122.650, S 2, T 34} C_DIS
LIN {X 494.939, Y -609.026, Z 660.809, A 179.210, B 0.540, C -122.650, S 2, T 34} C_DIS
LIN {X 495.281, Y -609.031, Z 660.813, A 179.210, B 0.540, C -122.650, S 2, T 34} C_DIS
LIN {X 495.622, Y -609.035, Z 660.816, A 179.210, B 0.540, C -122.650, S 2, T 34} C_DIS
LIN {X 495.964, Y -609.040, Z 660.819, A 179.210, B 0.540, C -122.650, S 2, T 34} C_DIS
LIN {X 496.305, Y -609.045, Z 660.822, A 179.210, B 0.540, C -122.650, S 2, T 34} C_DIS
LIN {X 496.647, Y -609.049, Z 660.825, A 179.210, B 0.540, C -122.650, S 2, T 34} C_DIS
LIN {X 496.988, Y -609.054, Z 660.829, A 179.210, B 0.540, C -122.650, S 2, T 34} C_DIS
LIN {X 496.988, Y -609.054, Z 660.829, A 179.210, B 0.540, C -122.650, S 2, T 34} C_DIS
LIN {X 497.021, Y -604.844, Z 663.526, A 179.210, B 0.540, C -122.650, S 2, T 34} C_DIS
LIN {X 483.701, Y -604.661, Z 663.401, A 179.210, B 0.540, C -122.650, S 2, T 34} C_DIS
LIN {X 483.668, Y -608.870, Z 660.703, A 179.210, B 0.540, C -122.650, S 2, T 34} C_DIS
LIN {X 483.663, Y -609.055, Z 660.991, A 179.210, B 0.540, C -122.650, S 2, T 34} C_DIS
LIN {X 484.000, Y -609.244, Z 661.282, A 179.210, B 0.540, C -122.650, S 2, T 34} C_DIS
LIN {X 483.653, Y -609.423, Z 661.566, A 179.210, B 0.540, C -122.650, S 2, T 34} C_DIS
LIN {X 483.647, Y -609.607, Z 661.853, A 179.210, B 0.540, C -122.650, S 2, T 34} C_DIS
LIN {X 483.642, Y -609.792, Z 662.141, A 179.210, B 0.540, C -122.650, S 2, T 34} C_DIS
LIN {X 483.295, Y -609.971, Z 662.425, A 179.210, B 0.540, C -122.650, S 2, T 34} C_DIS
LIN {X 483.290, Y -610.155, Z 662.713, A 179.210, B 0.540, C -122.650, S 2, T 34} C_DIS
LIN {X 483.285, Y -610.340, Z 663.001, A 179.210, B 0.540, C -122.650, S 2, T 34} C_DIS
LIN {X 482.938, Y -610.519, Z 663.285, A 179.210, B 0.540, C -122.650, S 2, T 34} C_DIS
LIN {X 482.591, Y -610.699, Z 663.569, A 179.210, B 0.540, C -122.650, S 2, T 34} C_DIS
LIN {X 482.255, Y -610.510, Z 663.279, A 179.210, B 0.540, C -122.650, S 2, T 34} C_DIS
LIN {X 482.260, Y -610.325, Z 662.991, A 179.210, B 0.540, C -122.650, S 2, T 34} C_DIS
LIN {X 482.266, Y -610.141, Z 662.703, A 179.210, B 0.540, C -122.650, S 2, T 34} C_DIS
LIN {X 481.929, Y -609.952, Z 662.413, A 179.210, B 0.540, C -122.650, S 2, T 34} C_DIS
LIN {X 481.935, Y -609.768, Z 662.125, A 179.210, B 0.540, C -122.650, S 2, T 34} C_DIS
LIN {X 481.940, Y -609.584, Z 661.837, A 179.210, B 0.540, C -122.650, S 2, T 34} C_DIS
LIN {X 481.945, Y -609.400, Z 661.550, A 179.210, B 0.540, C -122.650, S 2, T 34} C_DIS
LIN {X 481.609, Y -609.211, Z 661.259, A 179.210, B 0.540, C -122.650, S 2, T 34} C_DIS
LIN {X 481.614, Y -609.026, Z 660.971, A 179.210, B 0.540, C -122.650, S 2, T 34} C_DIS
LIN {X 481.619, Y -608.842, Z 660.684, A 179.210, B 0.540, C -122.650, S 2, T 34} C_DIS
LIN {X 481.625, Y -608.658, Z 660.396, A 179.210, B 0.540, C -122.650, S 2, T 34} C_DIS
LIN {X 481.630, Y -608.474, Z 660.109, A 179.210, B 0.540, C -122.650, S 2, T 34} C_DIS
LIN {X 481.635, Y -608.290, Z 659.821, A 179.210, B 0.540, C -122.650, S 2, T 34} C_DIS
LIN {X 481.299, Y -608.101, Z 659.530, A 179.210, B 0.540, C -122.650, S 2, T 34} C_DIS
LIN {X 481.304, Y -607.916, Z 659.243, A 179.210, B 0.540, C -122.650, S 2, T 34} C_DIS
LIN {X 481.304, Y -607.916, Z 659.243, A 179.210, B 0.540, C -122.650, S 2, T 34} C_DIS
LIN {X 481.337, Y -603.707, Z 661.940, A 179.210, B 0.540, C -122.650, S 2, T 34} C_DIS
LIN {X 453.478, Y -598.162, Z 653.624, A 179.210, B 0.540, C -122.650, S 2, T 34} C_DIS
LIN {X 453.446, Y -602.372, Z 650.926, A 179.210, B 0.540, C -122.650, S 2, T 34} C_DIS
LIN {X 453.104, Y -602.367, Z 650.923, A 179.210, B 0.540, C -122.650, S 2, T 34} C_DIS
LIN {X 452.762, Y -602.362, Z 650.920, A 179.210, B 0.540, C -122.650, S 2, T 34} C_DIS
LIN {X 452.426, Y -602.173, Z 650.629, A 179.210, B 0.540, C -122.650, S 2, T 34} C_DIS
LIN {X 452.085, Y -602.169, Z 650.626, A 179.210, B 0.540, C -122.650, S 2, T 34} C_DIS
LIN {X 451.743, Y -602.164, Z 650.622, A 179.210, B 0.540, C -122.650, S 2, T 34} C_DIS
LIN {X 451.402, Y -602.159, Z 650.619, A 179.210, B 0.540, C -122.650, S 2, T 34} C_DIS
LIN {X 451.065, Y -601.970, Z 650.328, A 179.210, B 0.540, C -122.650, S 2, T 34} C_DIS
LIN {X 450.724, Y -601.966, Z 650.325, A 179.210, B 0.540, C -122.650, S 2, T 34} C_DIS
LIN {X 450.382, Y -601.961, Z 650.322, A 179.210, B 0.540, C -122.650, S 2, T 34} C_DIS
LIN {X 450.041, Y -601.956, Z 650.319, A 179.210, B 0.540, C -122.650, S 2, T 34} C_DIS
LIN {X 449.704, Y -601.767, Z 650.028, A 179.210, B 0.540, C -122.650, S 2, T 34} C_DIS
LIN {X 449.363, Y -601.763, Z 650.025, A 179.210, B 0.540, C -122.650, S 2, T 34} C_DIS
LIN {X 449.021, Y -601.758, Z 650.022, A 179.210, B 0.540, C -122.650, S 2, T 34} C_DIS
LIN {X 448.680, Y -601.753, Z 650.018, A 179.210, B 0.540, C -122.650, S 2, T 34} C_DIS
LIN {X 448.338, Y -601.748, Z 650.015, A 179.210, B 0.540, C -122.650, S 2, T 34} C_DIS
LIN {X 448.338, Y -601.748, Z 650.015, A 179.210, B 0.540, C -122.650, S 2, T 34} C_DIS
LIN {X 448.371, Y -597.539, Z 652.712, A 179.210, B 0.540, C -122.650, S 2, T 34} C_DIS
LIN {X 447.352, Y -597.340, Z 652.415, A 179.210, B 0.540, C -122.650, S 2, T 34} C_DIS
LIN {X 447.319, Y -601.550, Z 649.718, A 179.210, B 0.540, C -122.650, S 2, T 34} C_DIS
LIN {X 447.666, Y -601.371, Z 649.433, A 179.210, B 0.540, C -122.650, S 2, T 34} C_DIS
LIN {X 447.671, Y -601.186, Z 649.146, A 179.210, B 0.540, C -122.650, S 2, T 34} C_DIS
LIN {X 447.335, Y -600.997, Z 648.855, A 179.210, B 0.540, C -122.650, S 2, T 34} C_DIS
LIN {X 447.682, Y -600.818, Z 648.571, A 179.210, B 0.540, C -122.650, S 2, T 34} C_DIS
LIN {X 447.687, Y -600.634, Z 648.283, A 179.210, B 0.540, C -122.650, S 2, T 34} C_DIS
LIN {X 447.692, Y -600.449, Z 647.996, A 179.210, B 0.540, C -122.650, S 2, T 34} C_DIS
LIN {X 448.039, Y -600.270, Z 647.711, A 179.210, B 0.540, C -122.650, S 2, T 34} C_DIS
LIN {X 448.044, Y -600.086, Z 647.424, A 179.210, B 0.540, C -122.650, S 2, T 34} C_DIS
LIN {X 448.049, Y -599.901, Z 647.136, A 179.210, B 0.540, C -122.650, S 2, T 34} C_DIS
LIN {X 448.055, Y -599.717, Z 646.848, A 179.210, B 0.540, C -122.650, S 2, T 34} C_DIS
LIN {X 448.060, Y -599.533, Z 646.561, A 179.210, B 0.540, C -122.650, S 2, T 34} C_DIS
LIN {X 448.065, Y -599.349, Z 646.273, A 179.210, B 0.540, C -122.650, S 2, T 34} C_DIS
LIN {X 448.070, Y -599.165, Z 645.986, A 179.210, B 0.540, C -122.650, S 2, T 34} C_DIS
LIN {X 448.076, Y -598.980, Z 645.698, A 179.210, B 0.540, C -122.650, S 2, T 34} C_DIS
LIN {X 448.081, Y -598.796, Z 645.410, A 179.210, B 0.540, C -122.650, S 2, T 34} C_DIS
LIN {X 448.428, Y -598.617, Z 645.126, A 179.210, B 0.540, C -122.650, S 2, T 34} C_DIS
LIN {X 448.769, Y -598.621, Z 645.129, A 179.210, B 0.540, C -122.650, S 2, T 34} C_DIS
LIN {X 449.116, Y -598.442, Z 644.845, A 179.210, B 0.540, C -122.650, S 2, T 34} C_DIS
LIN {X 449.457, Y -598.446, Z 644.848, A 179.210, B 0.540, C -122.650, S 2, T 34} C_DIS
LIN {X 449.799, Y -598.451, Z 644.851, A 179.210, B 0.540, C -122.650, S 2, T 34} C_DIS
LIN {X 450.141, Y -598.456, Z 644.855, A 179.210, B 0.540, C -122.650, S 2, T 34} C_DIS
LIN {X 450.482, Y -598.461, Z 644.858, A 179.210, B 0.540, C -122.650, S 2, T 34} C_DIS
LIN {X 450.824, Y -598.465, Z 644.861, A 179.210, B 0.540, C -122.650, S 2, T 34} C_DIS
LIN {X 451.165, Y -598.470, Z 644.864, A 179.210, B 0.540, C -122.650, S 2, T 34} C_DIS
LIN {X 451.507, Y -598.475, Z 644.867, A 179.210, B 0.540, C -122.650, S 2, T 34} C_DIS
LIN {X 451.848, Y -598.479, Z 644.871, A 179.210, B 0.540, C -122.650, S 2, T 34} C_DIS
LIN {X 452.190, Y -598.484, Z 644.874, A 179.210, B 0.540, C -122.650, S 2, T 34} C_DIS
LIN {X 452.531, Y -598.489, Z 644.877, A 179.210, B 0.540, C -122.650, S 2, T 34} C_DIS
LIN {X 452.873, Y -598.494, Z 644.880, A 179.210, B 0.540, C -122.650, S 2, T 34} C_DIS
LIN {X 453.209, Y -598.683, Z 645.171, A 179.210, B 0.540, C -122.650, S 2, T 34} C_DIS
LIN {X 453.204, Y -598.867, Z 645.459, A 179.210, B 0.540, C -122.650, S 2, T 34} C_DIS
LIN {X 452.857, Y -599.046, Z 645.743, A 179.210, B 0.540, C -122.650, S 2, T 34} C_DIS
LIN {X 452.857, Y -599.046, Z 645.743, A 179.210, B 0.540, C -122.650, S 2, T 34} C_DIS
LIN {X 452.890, Y -594.836, Z 648.440, A 179.210, B 0.540, C -122.650, S 2, T 34} C_DIS
LIN {X 453.194, Y -596.131, Z 650.457, A 179.210, B 0.540, C -122.650, S 2, T 34} C_DIS
LIN {X 453.162, Y -600.341, Z 647.759, A 179.210, B 0.540, C -122.650, S 2, T 34} C_DIS
LIN {X 452.815, Y -600.520, Z 648.044, A 179.210, B 0.540, C -122.650, S 2, T 34} C_DIS
LIN {X 452.473, Y -600.515, Z 648.041, A 179.210, B 0.540, C -122.650, S 2, T 34} C_DIS
LIN {X 452.127, Y -600.695, Z 648.325, A 179.210, B 0.540, C -122.650, S 2, T 34} C_DIS
LIN {X 451.780, Y -600.874, Z 648.609, A 179.210, B 0.540, C -122.650, S 2, T 34} C_DIS
LIN {X 451.438, Y -600.870, Z 648.606, A 179.210, B 0.540, C -122.650, S 2, T 34} C_DIS
LIN {X 451.092, Y -601.049, Z 648.890, A 179.210, B 0.540, C -122.650, S 2, T 34} C_DIS
LIN {X 450.750, Y -601.045, Z 648.887, A 179.210, B 0.540, C -122.650, S 2, T 34} C_DIS
LIN {X 450.409, Y -601.040, Z 648.884, A 179.210, B 0.540, C -122.650, S 2, T 34} C_DIS
LIN {X 450.072, Y -600.851, Z 648.593, A 179.210, B 0.540, C -122.650, S 2, T 34} C_DIS
LIN {X 450.077, Y -600.667, Z 648.306, A 179.210, B 0.540, C -122.650, S 2, T 34} C_DIS
LIN {X 450.083, Y -600.482, Z 648.018, A 179.210, B 0.540, C -122.650, S 2, T 34} C_DIS
LIN {X 450.088, Y -600.298, Z 647.730, A 179.210, B 0.540, C -122.650, S 2, T 34} C_DIS
LIN {X 450.093, Y -600.114, Z 647.443, A 179.210, B 0.540, C -122.650, S 2, T 34} C_DIS
LIN {X 450.099, Y -599.930, Z 647.155, A 179.210, B 0.540, C -122.650, S 2, T 34} C_DIS
LIN {X 450.104, Y -599.746, Z 646.868, A 179.210, B 0.540, C -122.650, S 2, T 34} C_DIS
LIN {X 450.109, Y -599.561, Z 646.580, A 179.210, B 0.540, C -122.650, S 2, T 34} C_DIS
LIN {X 450.456, Y -599.382, Z 646.296, A 179.210, B 0.540, C -122.650, S 2, T 34} C_DIS
LIN {X 450.797, Y -599.386, Z 646.299, A 179.210, B 0.540, C -122.650, S 2, T 34} C_DIS
LIN {X 451.139, Y -599.391, Z 646.302, A 179.210, B 0.540, C -122.650, S 2, T 34} C_DIS
LIN {X 451.480, Y -599.396, Z 646.305, A 179.210, B 0.540, C -122.650, S 2, T 34} C_DIS
LIN {X 451.822, Y -599.401, Z 646.309, A 179.210, B 0.540, C -122.650, S 2, T 34} C_DIS
LIN {X 452.163, Y -599.405, Z 646.312, A 179.210, B 0.540, C -122.650, S 2, T 34} C_DIS
LIN {X 452.500, Y -599.594, Z 646.603, A 179.210, B 0.540, C -122.650, S 2, T 34} C_DIS
LIN {X 452.841, Y -599.599, Z 646.606, A 179.210, B 0.540, C -122.650, S 2, T 34} C_DIS
LIN {X 452.841, Y -599.599, Z 646.606, A 179.210, B 0.540, C -122.650, S 2, T 34} C_DIS
LIN {X 452.874, Y -595.389, Z 649.303, A 179.210, B 0.540, C -122.650, S 2, T 34} C_DIS
LIN {X 455.291, Y -594.501, Z 647.888, A 179.210, B 0.540, C -122.650, S 2, T 34} C_DIS
LIN {X 455.258, Y -598.711, Z 645.190, A 179.210, B 0.540, C -122.650, S 2, T 34} C_DIS
LIN {X 455.253, Y -598.895, Z 645.478, A 179.210, B 0.540, C -122.650, S 2, T 34} C_DIS
LIN {X 455.248, Y -599.079, Z 645.766, A 179.210, B 0.540, C -122.650, S 2, T 34} C_DIS
LIN {X 455.242, Y -599.263, Z 646.053, A 179.210, B 0.540, C -122.650, S 2, T 34} C_DIS
LIN {X 455.237, Y -599.448, Z 646.341, A 179.210, B 0.540, C -122.650, S 2, T 34} C_DIS
LIN {X 454.890, Y -599.627, Z 646.625, A 179.210, B 0.540, C -122.650, S 2, T 34} C_DIS
LIN {X 454.885, Y -599.811, Z 646.913, A 179.210, B 0.540, C -122.650, S 2, T 34} C_DIS
LIN {X 454.880, Y -599.996, Z 647.200, A 179.210, B 0.540, C -122.650, S 2, T 34} C_DIS
LIN {X 454.875, Y -600.180, Z 647.488, A 179.210, B 0.540, C -122.650, S 2, T 34} C_DIS
LIN {X 454.869, Y -600.364, Z 647.776, A 179.210, B 0.540, C -122.650, S 2, T 34} C_DIS
LIN {X 454.864, Y -600.548, Z 648.063, A 179.210, B 0.540, C -122.650, S 2, T 34} C_DIS
LIN {X 454.859, Y -600.733, Z 648.351, A 179.210, B 0.540, C -122.650, S 2, T 34} C_DIS
LIN {X 454.854, Y -600.917, Z 648.638, A 179.210, B 0.540, C -122.650, S 2, T 34} C_DIS
LIN {X 454.848, Y -601.101, Z 648.926, A 179.210, B 0.540, C -122.650, S 2, T 34} C_DIS
LIN {X 454.843, Y -601.285, Z 649.213, A 179.210, B 0.540, C -122.650, S 2, T 34} C_DIS
LIN {X 454.838, Y -601.469, Z 649.501, A 179.210, B 0.540, C -122.650, S 2, T 34} C_DIS
LIN {X 454.833, Y -601.654, Z 649.789, A 179.210, B 0.540, C -122.650, S 2, T 34} C_DIS
LIN {X 454.827, Y -601.838, Z 650.076, A 179.210, B 0.540, C -122.650, S 2, T 34} C_DIS
LIN {X 454.822, Y -602.022, Z 650.364, A 179.210, B 0.540, C -122.650, S 2, T 34} C_DIS
LIN {X 454.817, Y -602.206, Z 650.651, A 179.210, B 0.540, C -122.650, S 2, T 34} C_DIS
LIN {X 454.812, Y -602.391, Z 650.939, A 179.210, B 0.540, C -122.650, S 2, T 34} C_DIS
LIN {X 454.465, Y -602.570, Z 651.223, A 179.210, B 0.540, C -122.650, S 2, T 34} C_DIS
LIN {X 454.801, Y -602.759, Z 651.514, A 179.210, B 0.540, C -122.650, S 2, T 34} C_DIS
LIN {X 455.137, Y -602.948, Z 651.805, A 179.210, B 0.540, C -122.650, S 2, T 34} C_DIS
LIN {X 455.474, Y -603.137, Z 652.096, A 179.210, B 0.540, C -122.650, S 2, T 34} C_DIS
LIN {X 455.468, Y -603.321, Z 652.383, A 179.210, B 0.540, C -122.650, S 2, T 34} C_DIS
LIN {X 455.463, Y -603.505, Z 652.671, A 179.210, B 0.540, C -122.650, S 2, T 34} C_DIS
LIN {X 455.458, Y -603.690, Z 652.959, A 179.210, B 0.540, C -122.650, S 2, T 34} C_DIS
LIN {X 455.453, Y -603.874, Z 653.246, A 179.210, B 0.540, C -122.650, S 2, T 34} C_DIS
LIN {X 455.447, Y -604.058, Z 653.534, A 179.210, B 0.540, C -122.650, S 2, T 34} C_DIS
LIN {X 455.442, Y -604.242, Z 653.821, A 179.210, B 0.540, C -122.650, S 2, T 34} C_DIS
LIN {X 455.095, Y -604.422, Z 654.106, A 179.210, B 0.540, C -122.650, S 2, T 34} C_DIS
LIN {X 455.090, Y -604.606, Z 654.393, A 179.210, B 0.540, C -122.650, S 2, T 34} C_DIS
LIN {X 455.085, Y -604.790, Z 654.681, A 179.210, B 0.540, C -122.650, S 2, T 34} C_DIS
LIN {X 454.738, Y -604.970, Z 654.965, A 179.210, B 0.540, C -122.650, S 2, T 34} C_DIS
LIN {X 454.733, Y -605.154, Z 655.253, A 179.210, B 0.540, C -122.650, S 2, T 34} C_DIS
LIN {X 454.728, Y -605.338, Z 655.540, A 179.210, B 0.540, C -122.650, S 2, T 34} C_DIS
LIN {X 454.722, Y -605.523, Z 655.828, A 179.210, B 0.540, C -122.650, S 2, T 34} C_DIS
LIN {X 454.717, Y -605.707, Z 656.116, A 179.210, B 0.540, C -122.650, S 2, T 34} C_DIS
LIN {X 454.370, Y -605.886, Z 656.400, A 179.210, B 0.540, C -122.650, S 2, T 34} C_DIS
LIN {X 454.029, Y -605.882, Z 656.397, A 179.210, B 0.540, C -122.650, S 2, T 34} C_DIS
LIN {X 453.687, Y -605.877, Z 656.394, A 179.210, B 0.540, C -122.650, S 2, T 34} C_DIS
LIN {X 453.346, Y -605.872, Z 656.390, A 179.210, B 0.540, C -122.650, S 2, T 34} C_DIS
LIN {X 453.004, Y -605.867, Z 656.387, A 179.210, B 0.540, C -122.650, S 2, T 34} C_DIS
LIN {X 452.668, Y -605.678, Z 656.096, A 179.210, B 0.540, C -122.650, S 2, T 34} C_DIS
LIN {X 452.326, Y -605.674, Z 656.093, A 179.210, B 0.540, C -122.650, S 2, T 34} C_DIS
LIN {X 451.985, Y -605.669, Z 656.090, A 179.210, B 0.540, C -122.650, S 2, T 34} C_DIS
LIN {X 451.643, Y -605.664, Z 656.087, A 179.210, B 0.540, C -122.650, S 2, T 34} C_DIS
LIN {X 451.302, Y -605.660, Z 656.083, A 179.210, B 0.540, C -122.650, S 2, T 34} C_DIS
LIN {X 450.960, Y -605.655, Z 656.080, A 179.210, B 0.540, C -122.650, S 2, T 34} C_DIS
LIN {X 450.619, Y -605.650, Z 656.077, A 179.210, B 0.540, C -122.650, S 2, T 34} C_DIS
LIN {X 450.277, Y -605.646, Z 656.074, A 179.210, B 0.540, C -122.650, S 2, T 34} C_DIS
LIN {X 449.936, Y -605.641, Z 656.071, A 179.210, B 0.540, C -122.650, S 2, T 34} C_DIS
LIN {X 449.599, Y -605.452, Z 655.780, A 179.210, B 0.540, C -122.650, S 2, T 34} C_DIS
LIN {X 449.258, Y -605.447, Z 655.777, A 179.210, B 0.540, C -122.650, S 2, T 34} C_DIS
LIN {X 448.916, Y -605.442, Z 655.773, A 179.210, B 0.540, C -122.650, S 2, T 34} C_DIS
LIN {X 448.575, Y -605.438, Z 655.770, A 179.210, B 0.540, C -122.650, S 2, T 34} C_DIS
LIN {X 448.233, Y -605.433, Z 655.767, A 179.210, B 0.540, C -122.650, S 2, T 34} C_DIS
LIN {X 447.892, Y -605.428, Z 655.764, A 179.210, B 0.540, C -122.650, S 2, T 34} C_DIS
LIN {X 447.556, Y -605.239, Z 655.473, A 179.210, B 0.540, C -122.650, S 2, T 34} C_DIS
LIN {X 447.902, Y -605.060, Z 655.188, A 179.210, B 0.540, C -122.650, S 2, T 34} C_DIS
LIN {X 447.908, Y -604.876, Z 654.901, A 179.210, B 0.540, C -122.650, S 2, T 34} C_DIS
LIN {X 447.913, Y -604.691, Z 654.613, A 179.210, B 0.540, C -122.650, S 2, T 34} C_DIS
LIN {X 448.260, Y -604.512, Z 654.329, A 179.210, B 0.540, C -122.650, S 2, T 34} C_DIS
LIN {X 448.265, Y -604.328, Z 654.041, A 179.210, B 0.540, C -122.650, S 2, T 34} C_DIS
LIN {X 448.270, Y -604.143, Z 653.754, A 179.210, B 0.540, C -122.650, S 2, T 34} C_DIS
LIN {X 448.275, Y -603.959, Z 653.466, A 179.210, B 0.540, C -122.650, S 2, T 34} C_DIS
LIN {X 448.281, Y -603.775, Z 653.179, A 179.210, B 0.540, C -122.650, S 2, T 34} C_DIS
LIN {X 448.286, Y -603.591, Z 652.891, A 179.210, B 0.540, C -122.650, S 2, T 34} C_DIS
LIN {X 448.291, Y -603.407, Z 652.603, A 179.210, B 0.540, C -122.650, S 2, T 34} C_DIS
LIN {X 448.296, Y -603.222, Z 652.316, A 179.210, B 0.540, C -122.650, S 2, T 34} C_DIS
LIN {X 448.302, Y -603.038, Z 652.028, A 179.210, B 0.540, C -122.650, S 2, T 34} C_DIS
LIN {X 448.307, Y -602.854, Z 651.741, A 179.210, B 0.540, C -122.650, S 2, T 34} C_DIS
LIN {X 448.654, Y -602.674, Z 651.456, A 179.210, B 0.540, C -122.650, S 2, T 34} C_DIS
LIN {X 448.995, Y -602.679, Z 651.459, A 179.210, B 0.540, C -122.650, S 2, T 34} C_DIS
LIN {X 449.337, Y -602.684, Z 651.463, A 179.210, B 0.540, C -122.650, S 2, T 34} C_DIS
LIN {X 449.678, Y -602.688, Z 651.466, A 179.210, B 0.540, C -122.650, S 2, T 34} C_DIS
LIN {X 450.020, Y -602.693, Z 651.469, A 179.210, B 0.540, C -122.650, S 2, T 34} C_DIS
LIN {X 450.361, Y -602.698, Z 651.472, A 179.210, B 0.540, C -122.650, S 2, T 34} C_DIS
LIN {X 450.703, Y -602.703, Z 651.476, A 179.210, B 0.540, C -122.650, S 2, T 34} C_DIS
LIN {X 451.044, Y -602.707, Z 651.479, A 179.210, B 0.540, C -122.650, S 2, T 34} C_DIS
LIN {X 451.386, Y -602.712, Z 651.482, A 179.210, B 0.540, C -122.650, S 2, T 34} C_DIS
LIN {X 451.727, Y -602.717, Z 651.485, A 179.210, B 0.540, C -122.650, S 2, T 34} C_DIS
LIN {X 452.069, Y -602.721, Z 651.488, A 179.210, B 0.540, C -122.650, S 2, T 34} C_DIS
LIN {X 452.405, Y -602.910, Z 651.779, A 179.210, B 0.540, C -122.650, S 2, T 34} C_DIS
LIN {X 452.747, Y -602.915, Z 651.782, A 179.210, B 0.540, C -122.650, S 2, T 34} C_DIS
LIN {X 453.094, Y -602.736, Z 651.498, A 179.210, B 0.540, C -122.650, S 2, T 34} C_DIS
LIN {X 453.435, Y -602.740, Z 651.501, A 179.210, B 0.540, C -122.650, S 2, T 34} C_DIS
LIN {X 453.771, Y -602.929, Z 651.792, A 179.210, B 0.540, C -122.650, S 2, T 34} C_DIS
LIN {X 453.766, Y -603.113, Z 652.080, A 179.210, B 0.540, C -122.650, S 2, T 34} C_DIS
LIN {X 453.761, Y -603.298, Z 652.367, A 179.210, B 0.540, C -122.650, S 2, T 34} C_DIS
LIN {X 453.414, Y -603.477, Z 652.652, A 179.210, B 0.540, C -122.650, S 2, T 34} C_DIS
LIN {X 453.750, Y -603.666, Z 652.942, A 179.210, B 0.540, C -122.650, S 2, T 34} C_DIS
LIN {X 453.745, Y -603.850, Z 653.230, A 179.210, B 0.540, C -122.650, S 2, T 34} C_DIS
LIN {X 453.740, Y -604.035, Z 653.518, A 179.210, B 0.540, C -122.650, S 2, T 34} C_DIS
LIN {X 453.735, Y -604.219, Z 653.805, A 179.210, B 0.540, C -122.650, S 2, T 34} C_DIS
LIN {X 453.729, Y -604.403, Z 654.093, A 179.210, B 0.540, C -122.650, S 2, T 34} C_DIS
LIN {X 453.724, Y -604.587, Z 654.380, A 179.210, B 0.540, C -122.650, S 2, T 34} C_DIS
LIN {X 453.377, Y -604.767, Z 654.665, A 179.210, B 0.540, C -122.650, S 2, T 34} C_DIS
LIN {X 453.036, Y -604.762, Z 654.662, A 179.210, B 0.540, C -122.650, S 2, T 34} C_DIS
LIN {X 452.694, Y -604.757, Z 654.658, A 179.210, B 0.540, C -122.650, S 2, T 34} C_DIS
LIN {X 452.353, Y -604.753, Z 654.655, A 179.210, B 0.540, C -122.650, S 2, T 34} C_DIS
LIN {X 452.011, Y -604.748, Z 654.652, A 179.210, B 0.540, C -122.650, S 2, T 34} C_DIS
LIN {X 451.670, Y -604.743, Z 654.649, A 179.210, B 0.540, C -122.650, S 2, T 34} C_DIS
LIN {X 451.328, Y -604.739, Z 654.645, A 179.210, B 0.540, C -122.650, S 2, T 34} C_DIS
LIN {X 450.987, Y -604.734, Z 654.642, A 179.210, B 0.540, C -122.650, S 2, T 34} C_DIS
LIN {X 450.645, Y -604.729, Z 654.639, A 179.210, B 0.540, C -122.650, S 2, T 34} C_DIS
LIN {X 450.304, Y -604.724, Z 654.636, A 179.210, B 0.540, C -122.650, S 2, T 34} C_DIS
LIN {X 449.967, Y -604.535, Z 654.345, A 179.210, B 0.540, C -122.650, S 2, T 34} C_DIS
LIN {X 449.972, Y -604.351, Z 654.057, A 179.210, B 0.540, C -122.650, S 2, T 34} C_DIS
LIN {X 449.978, Y -604.167, Z 653.770, A 179.210, B 0.540, C -122.650, S 2, T 34} C_DIS
LIN {X 449.983, Y -603.983, Z 653.482, A 179.210, B 0.540, C -122.650, S 2, T 34} C_DIS
LIN {X 449.647, Y -603.794, Z 653.191, A 179.210, B 0.540, C -122.650, S 2, T 34} C_DIS
LIN {X 449.652, Y -603.610, Z 652.904, A 179.210, B 0.540, C -122.650, S 2, T 34} C_DIS
LIN {X 449.999, Y -603.430, Z 652.619, A 179.210, B 0.540, C -122.650, S 2, T 34} C_DIS
LIN {X 450.346, Y -603.251, Z 652.335, A 179.210, B 0.540, C -122.650, S 2, T 34} C_DIS
LIN {X 450.687, Y -603.255, Z 652.338, A 179.210, B 0.540, C -122.650, S 2, T 34} C_DIS
LIN {X 451.029, Y -603.260, Z 652.342, A 179.210, B 0.540, C -122.650, S 2, T 34} C_DIS
LIN {X 451.370, Y -603.265, Z 652.345, A 179.210, B 0.540, C -122.650, S 2, T 34} C_DIS
LIN {X 451.712, Y -603.269, Z 652.348, A 179.210, B 0.540, C -122.650, S 2, T 34} C_DIS
LIN {X 452.053, Y -603.274, Z 652.351, A 179.210, B 0.540, C -122.650, S 2, T 34} C_DIS
LIN {X 452.389, Y -603.463, Z 652.642, A 179.210, B 0.540, C -122.650, S 2, T 34} C_DIS
LIN {X 452.731, Y -603.468, Z 652.645, A 179.210, B 0.540, C -122.650, S 2, T 34} C_DIS
LIN {X 453.073, Y -603.472, Z 652.648, A 179.210, B 0.540, C -122.650, S 2, T 34} C_DIS
LIN {X 453.073, Y -603.472, Z 652.648, A 179.210, B 0.540, C -122.650, S 2, T 34} C_DIS
LIN {X 453.105, Y -599.263, Z 655.346, A 179.210, B 0.540, C -122.650, S 2, T 34} C_DIS
LIN {X 485.829, Y -589.946, Z 640.409, A 179.210, B 0.540, C -122.650, S 2, T 34} C_DIS
LIN {X 485.796, Y -594.156, Z 637.712, A 179.210, B 0.540, C -122.650, S 2, T 34} C_DIS
LIN {X 486.143, Y -593.976, Z 637.428, A 179.210, B 0.540, C -122.650, S 2, T 34} C_DIS
LIN {X 486.490, Y -593.797, Z 637.143, A 179.210, B 0.540, C -122.650, S 2, T 34} C_DIS
LIN {X 486.837, Y -593.617, Z 636.859, A 179.210, B 0.540, C -122.650, S 2, T 34} C_DIS
LIN {X 487.183, Y -593.438, Z 636.575, A 179.210, B 0.540, C -122.650, S 2, T 34} C_DIS
LIN {X 487.530, Y -593.258, Z 636.290, A 179.210, B 0.540, C -122.650, S 2, T 34} C_DIS
LIN {X 487.877, Y -593.079, Z 636.006, A 179.210, B 0.540, C -122.650, S 2, T 34} C_DIS
LIN {X 488.224, Y -592.899, Z 635.721, A 179.210, B 0.540, C -122.650, S 2, T 34} C_DIS
LIN {X 488.570, Y -592.720, Z 635.437, A 179.210, B 0.540, C -122.650, S 2, T 34} C_DIS
LIN {X 488.912, Y -592.724, Z 635.440, A 179.210, B 0.540, C -122.650, S 2, T 34} C_DIS
LIN {X 489.259, Y -592.545, Z 635.156, A 179.210, B 0.540, C -122.650, S 2, T 34} C_DIS
LIN {X 489.606, Y -592.365, Z 634.872, A 179.210, B 0.540, C -122.650, S 2, T 34} C_DIS
LIN {X 489.947, Y -592.370, Z 634.875, A 179.210, B 0.540, C -122.650, S 2, T 34} C_DIS
LIN {X 490.294, Y -592.190, Z 634.590, A 179.210, B 0.540, C -122.650, S 2, T 34} C_DIS
LIN {X 490.641, Y -592.011, Z 634.306, A 179.210, B 0.540, C -122.650, S 2, T 34} C_DIS
LIN {X 490.987, Y -591.831, Z 634.022, A 179.210, B 0.540, C -122.650, S 2, T 34} C_DIS
LIN {X 491.329, Y -591.836, Z 634.025, A 179.210, B 0.540, C -122.650, S 2, T 34} C_DIS
LIN {X 491.676, Y -591.657, Z 633.740, A 179.210, B 0.540, C -122.650, S 2, T 34} C_DIS
LIN {X 492.023, Y -591.477, Z 633.456, A 179.210, B 0.540, C -122.650, S 2, T 34} C_DIS
LIN {X 492.364, Y -591.482, Z 633.459, A 179.210, B 0.540, C -122.650, S 2, T 34} C_DIS
LIN {X 492.711, Y -591.302, Z 633.175, A 179.210, B 0.540, C -122.650, S 2, T 34} C_DIS
LIN {X 493.058, Y -591.123, Z 632.891, A 179.210, B 0.540, C -122.650, S 2, T 34} C_DIS
LIN {X 493.399, Y -591.127, Z 632.894, A 179.210, B 0.540, C -122.650, S 2, T 34} C_DIS
LIN {X 493.746, Y -590.948, Z 632.609, A 179.210, B 0.540, C -122.650, S 2, T 34} C_DIS
LIN {X 494.087, Y -590.953, Z 632.613, A 179.210, B 0.540, C -122.650, S 2, T 34} C_DIS
LIN {X 494.434, Y -590.773, Z 632.328, A 179.210, B 0.540, C -122.650, S 2, T 34} C_DIS
LIN {X 494.781, Y -590.594, Z 632.044, A 179.210, B 0.540, C -122.650, S 2, T 34} C_DIS
LIN {X 495.123, Y -590.598, Z 632.047, A 179.210, B 0.540, C -122.650, S 2, T 34} C_DIS
LIN {X 495.469, Y -590.419, Z 631.763, A 179.210, B 0.540, C -122.650, S 2, T 34} C_DIS
LIN {X 495.811, Y -590.424, Z 631.766, A 179.210, B 0.540, C -122.650, S 2, T 34} C_DIS
LIN {X 496.158, Y -590.244, Z 631.482, A 179.210, B 0.540, C -122.650, S 2, T 34} C_DIS
LIN {X 496.499, Y -590.249, Z 631.485, A 179.210, B 0.540, C -122.650, S 2, T 34} C_DIS
LIN {X 496.846, Y -590.069, Z 631.200, A 179.210, B 0.540, C -122.650, S 2, T 34} C_DIS
LIN {X 497.188, Y -590.074, Z 631.204, A 179.210, B 0.540, C -122.650, S 2, T 34} C_DIS
LIN {X 497.534, Y -589.894, Z 630.919, A 179.210, B 0.540, C -122.650, S 2, T 34} C_DIS
LIN {X 497.876, Y -589.899, Z 630.923, A 179.210, B 0.540, C -122.650, S 2, T 34} C_DIS
LIN {X 498.223, Y -589.720, Z 630.638, A 179.210, B 0.540, C -122.650, S 2, T 34} C_DIS
LIN {X 498.564, Y -589.724, Z 630.641, A 179.210, B 0.540, C -122.650, S 2, T 34} C_DIS
LIN {X 498.911, Y -589.545, Z 630.357, A 179.210, B 0.540, C -122.650, S 2, T 34} C_DIS
LIN {X 499.252, Y -589.549, Z 630.360, A 179.210, B 0.540, C -122.650, S 2, T 34} C_DIS
LIN {X 499.599, Y -589.370, Z 630.076, A 179.210, B 0.540, C -122.650, S 2, T 34} C_DIS
LIN {X 499.941, Y -589.375, Z 630.079, A 179.210, B 0.540, C -122.650, S 2, T 34} C_DIS
LIN {X 500.282, Y -589.379, Z 630.082, A 179.210, B 0.540, C -122.650, S 2, T 34} C_DIS
LIN {X 500.629, Y -589.200, Z 629.798, A 179.210, B 0.540, C -122.650, S 2, T 34} C_DIS
LIN {X 500.971, Y -589.205, Z 629.801, A 179.210, B 0.540, C -122.650, S 2, T 34} C_DIS
LIN {X 501.312, Y -589.209, Z 629.804, A 179.210, B 0.540, C -122.650, S 2, T 34} C_DIS
LIN {X 501.659, Y -589.030, Z 629.520, A 179.210, B 0.540, C -122.650, S 2, T 34} C_DIS
LIN {X 502.000, Y -589.034, Z 629.523, A 179.210, B 0.540, C -122.650, S 2, T 34} C_DIS
LIN {X 502.342, Y -589.039, Z 629.526, A 179.210, B 0.540, C -122.650, S 2, T 34} C_DIS
LIN {X 502.689, Y -588.860, Z 629.242, A 179.210, B 0.540, C -122.650, S 2, T 34} C_DIS
LIN {X 503.030, Y -588.864, Z 629.245, A 179.210, B 0.540, C -122.650, S 2, T 34} C_DIS
LIN {X 503.372, Y -588.869, Z 629.248, A 179.210, B 0.540, C -122.650, S 2, T 34} C_DIS
LIN {X 503.719, Y -588.690, Z 628.964, A 179.210, B 0.540, C -122.650, S 2, T 34} C_DIS
LIN {X 504.060, Y -588.694, Z 628.967, A 179.210, B 0.540, C -122.650, S 2, T 34} C_DIS
LIN {X 504.402, Y -588.699, Z 628.971, A 179.210, B 0.540, C -122.650, S 2, T 34} C_DIS
LIN {X 504.748, Y -588.519, Z 628.686, A 179.210, B 0.540, C -122.650, S 2, T 34} C_DIS
LIN {X 505.090, Y -588.524, Z 628.689, A 179.210, B 0.540, C -122.650, S 2, T 34} C_DIS
LIN {X 505.432, Y -588.529, Z 628.693, A 179.210, B 0.540, C -122.650, S 2, T 34} C_DIS
LIN {X 505.773, Y -588.534, Z 628.696, A 179.210, B 0.540, C -122.650, S 2, T 34} C_DIS
LIN {X 506.115, Y -588.538, Z 628.699, A 179.210, B 0.540, C -122.650, S 2, T 34} C_DIS
LIN {X 506.461, Y -588.359, Z 628.415, A 179.210, B 0.540, C -122.650, S 2, T 34} C_DIS
LIN {X 506.803, Y -588.363, Z 628.418, A 179.210, B 0.540, C -122.650, S 2, T 34} C_DIS
LIN {X 507.144, Y -588.368, Z 628.421, A 179.210, B 0.540, C -122.650, S 2, T 34} C_DIS
LIN {X 507.486, Y -588.373, Z 628.424, A 179.210, B 0.540, C -122.650, S 2, T 34} C_DIS
LIN {X 507.827, Y -588.378, Z 628.428, A 179.210, B 0.540, C -122.650, S 2, T 34} C_DIS
LIN {X 508.169, Y -588.382, Z 628.431, A 179.210, B 0.540, C -122.650, S 2, T 34} C_DIS
LIN {X 508.516, Y -588.203, Z 628.146, A 179.210, B 0.540, C -122.650, S 2, T 34} C_DIS
LIN {X 508.857, Y -588.207, Z 628.150, A 179.210, B 0.540, C -122.650, S 2, T 34} C_DIS
LIN {X 509.199, Y -588.212, Z 628.153, A 179.210, B 0.540, C -122.650, S 2, T 34} C_DIS
LIN {X 509.540, Y -588.217, Z 628.156, A 179.210, B 0.540, C -122.650, S 2, T 34} C_DIS
LIN {X 509.882, Y -588.222, Z 628.159, A 179.210, B 0.540, C -122.650, S 2, T 34} C_DIS
LIN {X 510.223, Y -588.226, Z 628.163, A 179.210, B 0.540, C -122.650, S 2, T 34} C_DIS
LIN {X 510.565, Y -588.231, Z 628.166, A 179.210, B 0.540, C -122.650, S 2, T 34} C_DIS
LIN {X 510.901, Y -588.420, Z 628.457, A 179.210, B 0.540, C -122.650, S 2, T 34} C_DIS
LIN {X 511.243, Y -588.425, Z 628.460, A 179.210, B 0.540, C -122.650, S 2, T 34} C_DIS
LIN {X 511.584, Y -588.429, Z 628.463, A 179.210, B 0.540, C -122.650, S 2, T 34} C_DIS
LIN {X 511.926, Y -588.434, Z 628.466, A 179.210, B 0.540, C -122.650, S 2, T 34} C_DIS
LIN {X 512.267, Y -588.439, Z 628.469, A 179.210, B 0.540, C -122.650, S 2, T 34} C_DIS
LIN {X 512.609, Y -588.444, Z 628.473, A 179.210, B 0.540, C -122.650, S 2, T 34} C_DIS
LIN {X 512.945, Y -588.632, Z 628.763, A 179.210, B 0.540, C -122.650, S 2, T 34} C_DIS
LIN {X 513.287, Y -588.637, Z 628.767, A 179.210, B 0.540, C -122.650, S 2, T 34} C_DIS
LIN {X 513.628, Y -588.642, Z 628.770, A 179.210, B 0.540, C -122.650, S 2, T 34} C_DIS
LIN {X 513.965, Y -588.831, Z 629.061, A 179.210, B 0.540, C -122.650, S 2, T 34} C_DIS
LIN {X 514.306, Y -588.836, Z 629.064, A 179.210, B 0.540, C -122.650, S 2, T 34} C_DIS
LIN {X 514.642, Y -589.024, Z 629.355, A 179.210, B 0.540, C -122.650, S 2, T 34} C_DIS
LIN {X 514.979, Y -589.213, Z 629.646, A 179.210, B 0.540, C -122.650, S 2, T 34} C_DIS
LIN {X 515.320, Y -589.218, Z 629.649, A 179.210, B 0.540, C -122.650, S 2, T 34} C_DIS
LIN {X 515.656, Y -589.407, Z 629.940, A 179.210, B 0.540, C -122.650, S 2, T 34} C_DIS
LIN {X 515.993, Y -589.596, Z 630.230, A 179.210, B 0.540, C -122.650, S 2, T 34} C_DIS
LIN {X 516.334, Y -589.601, Z 630.234, A 179.210, B 0.540, C -122.650, S 2, T 34} C_DIS
LIN {X 516.671, Y -589.790, Z 630.524, A 179.210, B 0.540, C -122.650, S 2, T 34} C_DIS
LIN {X 517.007, Y -589.979, Z 630.815, A 179.210, B 0.540, C -122.650, S 2, T 34} C_DIS
LIN {X 517.343, Y -590.168, Z 631.106, A 179.210, B 0.540, C -122.650, S 2, T 34} C_DIS
LIN {X 517.679, Y -590.356, Z 631.397, A 179.210, B 0.540, C -122.650, S 2, T 34} C_DIS
LIN {X 518.016, Y -590.545, Z 631.688, A 179.210, B 0.540, C -122.650, S 2, T 34} C_DIS
LIN {X 518.352, Y -590.734, Z 631.978, A 179.210, B 0.540, C -122.650, S 2, T 34} C_DIS
LIN {X 518.688, Y -590.923, Z 632.269, A 179.210, B 0.540, C -122.650, S 2, T 34} C_DIS
LIN {X 519.024, Y -591.112, Z 632.560, A 179.210, B 0.540, C -122.650, S 2, T 34} C_DIS
LIN {X 519.361, Y -591.301, Z 632.851, A 179.210, B 0.540, C -122.650, S 2, T 34} C_DIS
LIN {X 519.697, Y -591.490, Z 633.142, A 179.210, B 0.540, C -122.650, S 2, T 34} C_DIS
LIN {X 520.033, Y -591.679, Z 633.432, A 179.210, B 0.540, C -122.650, S 2, T 34} C_DIS
LIN {X 520.370, Y -591.868, Z 633.723, A 179.210, B 0.540, C -122.650, S 2, T 34} C_DIS
LIN {X 520.364, Y -592.052, Z 634.011, A 179.210, B 0.540, C -122.650, S 2, T 34} C_DIS
LIN {X 520.701, Y -592.241, Z 634.302, A 179.210, B 0.540, C -122.650, S 2, T 34} C_DIS
LIN {X 521.037, Y -592.430, Z 634.593, A 179.210, B 0.540, C -122.650, S 2, T 34} C_DIS
LIN {X 521.373, Y -592.619, Z 634.883, A 179.210, B 0.540, C -122.650, S 2, T 34} C_DIS
LIN {X 521.709, Y -592.808, Z 635.174, A 179.210, B 0.540, C -122.650, S 2, T 34} C_DIS
LIN {X 522.046, Y -592.997, Z 635.465, A 179.210, B 0.540, C -122.650, S 2, T 34} C_DIS
LIN {X 522.382, Y -593.186, Z 635.756, A 179.210, B 0.540, C -122.650, S 2, T 34} C_DIS
LIN {X 522.377, Y -593.370, Z 636.043, A 179.210, B 0.540, C -122.650, S 2, T 34} C_DIS
LIN {X 522.713, Y -593.559, Z 636.334, A 179.210, B 0.540, C -122.650, S 2, T 34} C_DIS
LIN {X 523.049, Y -593.748, Z 636.625, A 179.210, B 0.540, C -122.650, S 2, T 34} C_DIS
LIN {X 523.386, Y -593.937, Z 636.916, A 179.210, B 0.540, C -122.650, S 2, T 34} C_DIS
LIN {X 523.722, Y -594.126, Z 637.207, A 179.210, B 0.540, C -122.650, S 2, T 34} C_DIS
LIN {X 523.717, Y -594.310, Z 637.494, A 179.210, B 0.540, C -122.650, S 2, T 34} C_DIS
LIN {X 524.053, Y -594.499, Z 637.785, A 179.210, B 0.540, C -122.650, S 2, T 34} C_DIS
LIN {X 524.389, Y -594.688, Z 638.076, A 179.210, B 0.540, C -122.650, S 2, T 34} C_DIS
LIN {X 524.725, Y -594.877, Z 638.367, A 179.210, B 0.540, C -122.650, S 2, T 34} C_DIS
LIN {X 525.062, Y -595.066, Z 638.657, A 179.210, B 0.540, C -122.650, S 2, T 34} C_DIS
LIN {X 525.398, Y -595.255, Z 638.948, A 179.210, B 0.540, C -122.650, S 2, T 34} C_DIS
LIN {X 525.734, Y -595.444, Z 639.239, A 179.210, B 0.540, C -122.650, S 2, T 34} C_DIS
LIN {X 526.071, Y -595.633, Z 639.530, A 179.210, B 0.540, C -122.650, S 2, T 34} C_DIS
LIN {X 526.407, Y -595.822, Z 639.821, A 179.210, B 0.540, C -122.650, S 2, T 34} C_DIS
LIN {X 526.743, Y -596.010, Z 640.111, A 179.210, B 0.540, C -122.650, S 2, T 34} C_DIS
LIN {X 527.079, Y -596.199, Z 640.402, A 179.210, B 0.540, C -122.650, S 2, T 34} C_DIS
LIN {X 527.416, Y -596.388, Z 640.693, A 179.210, B 0.540, C -122.650, S 2, T 34} C_DIS
LIN {X 527.752, Y -596.577, Z 640.984, A 179.210, B 0.540, C -122.650, S 2, T 34} C_DIS
LIN {X 528.088, Y -596.766, Z 641.275, A 179.210, B 0.540, C -122.650, S 2, T 34} C_DIS
LIN {X 528.430, Y -596.771, Z 641.278, A 179.210, B 0.540, C -122.650, S 2, T 34} C_DIS
LIN {X 528.766, Y -596.960, Z 641.569, A 179.210, B 0.540, C -122.650, S 2, T 34} C_DIS
LIN {X 529.108, Y -596.965, Z 641.572, A 179.210, B 0.540, C -122.650, S 2, T 34} C_DIS
LIN {X 529.444, Y -597.154, Z 641.863, A 179.210, B 0.540, C -122.650, S 2, T 34} C_DIS
LIN {X 529.780, Y -597.342, Z 642.154, A 179.210, B 0.540, C -122.650, S 2, T 34} C_DIS
LIN {X 530.122, Y -597.347, Z 642.157, A 179.210, B 0.540, C -122.650, S 2, T 34} C_DIS
LIN {X 530.463, Y -597.352, Z 642.160, A 179.210, B 0.540, C -122.650, S 2, T 34} C_DIS
LIN {X 530.800, Y -597.541, Z 642.451, A 179.210, B 0.540, C -122.650, S 2, T 34} C_DIS
LIN {X 531.141, Y -597.546, Z 642.454, A 179.210, B 0.540, C -122.650, S 2, T 34} C_DIS
LIN {X 531.483, Y -597.550, Z 642.457, A 179.210, B 0.540, C -122.650, S 2, T 34} C_DIS
LIN {X 531.824, Y -597.555, Z 642.460, A 179.210, B 0.540, C -122.650, S 2, T 34} C_DIS
LIN {X 532.166, Y -597.560, Z 642.464, A 179.210, B 0.540, C -122.650, S 2, T 34} C_DIS
LIN {X 532.502, Y -597.749, Z 642.754, A 179.210, B 0.540, C -122.650, S 2, T 34} C_DIS
LIN {X 532.843, Y -597.753, Z 642.758, A 179.210, B 0.540, C -122.650, S 2, T 34} C_DIS
LIN {X 533.185, Y -597.758, Z 642.761, A 179.210, B 0.540, C -122.650, S 2, T 34} C_DIS
LIN {X 533.527, Y -597.763, Z 642.764, A 179.210, B 0.540, C -122.650, S 2, T 34} C_DIS
LIN {X 533.868, Y -597.767, Z 642.767, A 179.210, B 0.540, C -122.650, S 2, T 34} C_DIS
LIN {X 534.210, Y -597.772, Z 642.771, A 179.210, B 0.540, C -122.650, S 2, T 34} C_DIS
LIN {X 534.551, Y -597.777, Z 642.774, A 179.210, B 0.540, C -122.650, S 2, T 34} C_DIS
LIN {X 534.893, Y -597.782, Z 642.777, A 179.210, B 0.540, C -122.650, S 2, T 34} C_DIS
LIN {X 535.234, Y -597.786, Z 642.780, A 179.210, B 0.540, C -122.650, S 2, T 34} C_DIS
LIN {X 535.576, Y -597.791, Z 642.783, A 179.210, B 0.540, C -122.650, S 2, T 34} C_DIS
LIN {X 535.917, Y -597.796, Z 642.787, A 179.210, B 0.540, C -122.650, S 2, T 34} C_DIS
LIN {X 536.259, Y -597.800, Z 642.790, A 179.210, B 0.540, C -122.650, S 2, T 34} C_DIS
LIN {X 536.600, Y -597.805, Z 642.793, A 179.210, B 0.540, C -122.650, S 2, T 34} C_DIS
LIN {X 536.942, Y -597.810, Z 642.796, A 179.210, B 0.540, C -122.650, S 2, T 34} C_DIS
LIN {X 537.283, Y -597.815, Z 642.800, A 179.210, B 0.540, C -122.650, S 2, T 34} C_DIS
LIN {X 537.630, Y -597.635, Z 642.515, A 179.210, B 0.540, C -122.650, S 2, T 34} C_DIS
LIN {X 537.972, Y -597.640, Z 642.518, A 179.210, B 0.540, C -122.650, S 2, T 34} C_DIS
LIN {X 538.313, Y -597.644, Z 642.522, A 179.210, B 0.540, C -122.650, S 2, T 34} C_DIS
LIN {X 538.655, Y -597.649, Z 642.525, A 179.210, B 0.540, C -122.650, S 2, T 34} C_DIS
LIN {X 538.996, Y -597.654, Z 642.528, A 179.210, B 0.540, C -122.650, S 2, T 34} C_DIS
LIN {X 539.338, Y -597.659, Z 642.531, A 179.210, B 0.540, C -122.650, S 2, T 34} C_DIS
LIN {X 539.685, Y -597.479, Z 642.247, A 179.210, B 0.540, C -122.650, S 2, T 34} C_DIS
LIN {X 540.026, Y -597.484, Z 642.250, A 179.210, B 0.540, C -122.650, S 2, T 34} C_DIS
LIN {X 540.368, Y -597.488, Z 642.253, A 179.210, B 0.540, C -122.650, S 2, T 34} C_DIS
LIN {X 540.709, Y -597.493, Z 642.257, A 179.210, B 0.540, C -122.650, S 2, T 34} C_DIS
LIN {X 541.056, Y -597.314, Z 641.972, A 179.210, B 0.540, C -122.650, S 2, T 34} C_DIS
LIN {X 541.397, Y -597.318, Z 641.975, A 179.210, B 0.540, C -122.650, S 2, T 34} C_DIS
LIN {X 541.739, Y -597.323, Z 641.979, A 179.210, B 0.540, C -122.650, S 2, T 34} C_DIS
LIN {X 542.086, Y -597.144, Z 641.694, A 179.210, B 0.540, C -122.650, S 2, T 34} C_DIS
LIN {X 542.427, Y -597.148, Z 641.697, A 179.210, B 0.540, C -122.650, S 2, T 34} C_DIS
LIN {X 542.769, Y -597.153, Z 641.701, A 179.210, B 0.540, C -122.650, S 2, T 34} C_DIS
LIN {X 543.110, Y -597.158, Z 641.704, A 179.210, B 0.540, C -122.650, S 2, T 34} C_DIS
LIN {X 543.457, Y -596.978, Z 641.420, A 179.210, B 0.540, C -122.650, S 2, T 34} C_DIS
LIN {X 543.799, Y -596.983, Z 641.423, A 179.210, B 0.540, C -122.650, S 2, T 34} C_DIS
LIN {X 544.140, Y -596.988, Z 641.426, A 179.210, B 0.540, C -122.650, S 2, T 34} C_DIS
LIN {X 544.482, Y -596.992, Z 641.429, A 179.210, B 0.540, C -122.650, S 2, T 34} C_DIS
LIN {X 544.829, Y -596.813, Z 641.145, A 179.210, B 0.540, C -122.650, S 2, T 34} C_DIS
LIN {X 545.170, Y -596.817, Z 641.148, A 179.210, B 0.540, C -122.650, S 2, T 34} C_DIS
LIN {X 545.512, Y -596.822, Z 641.151, A 179.210, B 0.540, C -122.650, S 2, T 34} C_DIS
LIN {X 545.858, Y -596.643, Z 640.867, A 179.210, B 0.540, C -122.650, S 2, T 34} C_DIS
LIN {X 546.200, Y -596.647, Z 640.870, A 179.210, B 0.540, C -122.650, S 2, T 34} C_DIS
LIN {X 546.547, Y -596.468, Z 640.586, A 179.210, B 0.540, C -122.650, S 2, T 34} C_DIS
LIN {X 546.888, Y -596.473, Z 640.589, A 179.210, B 0.540, C -122.650, S 2, T 34} C_DIS
LIN {X 547.230, Y -596.477, Z 640.592, A 179.210, B 0.540, C -122.650, S 2, T 34} C_DIS
LIN {X 547.577, Y -596.298, Z 640.308, A 179.210, B 0.540, C -122.650, S 2, T 34} C_DIS
LIN {X 547.918, Y -596.302, Z 640.311, A 179.210, B 0.540, C -122.650, S 2, T 34} C_DIS
LIN {X 548.265, Y -596.123, Z 640.027, A 179.210, B 0.540, C -122.650, S 2, T 34} C_DIS
LIN {X 548.606, Y -596.128, Z 640.030, A 179.210, B 0.540, C -122.650, S 2, T 34} C_DIS
LIN {X 548.953, Y -595.948, Z 639.746, A 179.210, B 0.540, C -122.650, S 2, T 34} C_DIS
LIN {X 549.295, Y -595.953, Z 639.749, A 179.210, B 0.540, C -122.650, S 2, T 34} C_DIS
LIN {X 549.641, Y -595.773, Z 639.464, A 179.210, B 0.540, C -122.650, S 2, T 34} C_DIS
LIN {X 549.983, Y -595.778, Z 639.468, A 179.210, B 0.540, C -122.650, S 2, T 34} C_DIS
LIN {X 550.330, Y -595.598, Z 639.183, A 179.210, B 0.540, C -122.650, S 2, T 34} C_DIS
LIN {X 550.671, Y -595.603, Z 639.186, A 179.210, B 0.540, C -122.650, S 2, T 34} C_DIS
LIN {X 551.018, Y -595.424, Z 638.902, A 179.210, B 0.540, C -122.650, S 2, T 34} C_DIS
LIN {X 551.360, Y -595.428, Z 638.905, A 179.210, B 0.540, C -122.650, S 2, T 34} C_DIS
LIN {X 551.706, Y -595.249, Z 638.621, A 179.210, B 0.540, C -122.650, S 2, T 34} C_DIS
LIN {X 552.048, Y -595.254, Z 638.624, A 179.210, B 0.540, C -122.650, S 2, T 34} C_DIS
LIN {X 552.395, Y -595.074, Z 638.340, A 179.210, B 0.540, C -122.650, S 2, T 34} C_DIS
LIN {X 552.742, Y -594.895, Z 638.055, A 179.210, B 0.540, C -122.650, S 2, T 34} C_DIS
LIN {X 553.088, Y -594.715, Z 637.771, A 179.210, B 0.540, C -122.650, S 2, T 34} C_DIS
LIN {X 553.430, Y -594.720, Z 637.774, A 179.210, B 0.540, C -122.650, S 2, T 34} C_DIS
LIN {X 553.777, Y -594.540, Z 637.490, A 179.210, B 0.540, C -122.650, S 2, T 34} C_DIS
LIN {X 554.123, Y -594.361, Z 637.205, A 179.210, B 0.540, C -122.650, S 2, T 34} C_DIS
LIN {X 554.470, Y -594.181, Z 636.921, A 179.210, B 0.540, C -122.650, S 2, T 34} C_DIS
LIN {X 554.817, Y -594.002, Z 636.637, A 179.210, B 0.540, C -122.650, S 2, T 34} C_DIS
LIN {X 555.164, Y -593.822, Z 636.352, A 179.210, B 0.540, C -122.650, S 2, T 34} C_DIS
LIN {X 555.511, Y -593.643, Z 636.068, A 179.210, B 0.540, C -122.650, S 2, T 34} C_DIS
LIN {X 555.852, Y -593.647, Z 636.071, A 179.210, B 0.540, C -122.650, S 2, T 34} C_DIS
LIN {X 556.199, Y -593.468, Z 635.787, A 179.210, B 0.540, C -122.650, S 2, T 34} C_DIS
LIN {X 556.546, Y -593.288, Z 635.502, A 179.210, B 0.540, C -122.650, S 2, T 34} C_DIS
LIN {X 556.551, Y -593.104, Z 635.215, A 179.210, B 0.540, C -122.650, S 2, T 34} C_DIS
LIN {X 556.898, Y -592.925, Z 634.931, A 179.210, B 0.540, C -122.650, S 2, T 34} C_DIS
LIN {X 557.244, Y -592.745, Z 634.646, A 179.210, B 0.540, C -122.650, S 2, T 34} C_DIS
LIN {X 557.591, Y -592.565, Z 634.362, A 179.210, B 0.540, C -122.650, S 2, T 34} C_DIS
LIN {X 557.938, Y -592.386, Z 634.077, A 179.210, B 0.540, C -122.650, S 2, T 34} C_DIS
LIN {X 558.285, Y -592.206, Z 633.793, A 179.210, B 0.540, C -122.650, S 2, T 34} C_DIS
LIN {X 558.290, Y -592.022, Z 633.505, A 179.210, B 0.540, C -122.650, S 2, T 34} C_DIS
LIN {X 558.637, Y -591.843, Z 633.221, A 179.210, B 0.540, C -122.650, S 2, T 34} C_DIS
LIN {X 558.984, Y -591.663, Z 632.937, A 179.210, B 0.540, C -122.650, S 2, T 34} C_DIS
LIN {X 558.989, Y -591.479, Z 632.649, A 179.210, B 0.540, C -122.650, S 2, T 34} C_DIS
LIN {X 559.336, Y -591.299, Z 632.365, A 179.210, B 0.540, C -122.650, S 2, T 34} C_DIS
LIN {X 559.682, Y -591.120, Z 632.080, A 179.210, B 0.540, C -122.650, S 2, T 34} C_DIS
LIN {X 559.688, Y -590.936, Z 631.793, A 179.210, B 0.540, C -122.650, S 2, T 34} C_DIS
LIN {X 560.034, Y -590.756, Z 631.508, A 179.210, B 0.540, C -122.650, S 2, T 34} C_DIS
LIN {X 560.040, Y -590.572, Z 631.221, A 179.210, B 0.540, C -122.650, S 2, T 34} C_DIS
LIN {X 560.386, Y -590.392, Z 630.936, A 179.210, B 0.540, C -122.650, S 2, T 34} C_DIS
LIN {X 560.392, Y -590.208, Z 630.649, A 179.210, B 0.540, C -122.650, S 2, T 34} C_DIS
LIN {X 560.738, Y -590.029, Z 630.365, A 179.210, B 0.540, C -122.650, S 2, T 34} C_DIS
LIN {X 560.744, Y -589.844, Z 630.077, A 179.210, B 0.540, C -122.650, S 2, T 34} C_DIS
LIN {X 560.749, Y -589.660, Z 629.789, A 179.210, B 0.540, C -122.650, S 2, T 34} C_DIS
LIN {X 560.754, Y -589.476, Z 629.502, A 179.210, B 0.540, C -122.650, S 2, T 34} C_DIS
LIN {X 560.754, Y -589.476, Z 629.502, A 179.210, B 0.540, C -122.650, S 2, T 34} C_DIS
LIN {X 560.787, Y -585.266, Z 632.199, A 179.210, B 0.540, C -122.650, S 2, T 34} C_DIS
LIN {X 475.830, Y -581.146, Z 626.796, A 179.210, B 0.540, C -122.650, S 2, T 34} C_DIS
LIN {X 475.797, Y -585.356, Z 624.099, A 179.210, B 0.540, C -122.650, S 2, T 34} C_DIS
LIN {X 476.144, Y -585.176, Z 623.814, A 179.210, B 0.540, C -122.650, S 2, T 34} C_DIS
LIN {X 476.149, Y -584.992, Z 623.527, A 179.210, B 0.540, C -122.650, S 2, T 34} C_DIS
LIN {X 476.496, Y -584.812, Z 623.242, A 179.210, B 0.540, C -122.650, S 2, T 34} C_DIS
LIN {X 476.843, Y -584.633, Z 622.958, A 179.210, B 0.540, C -122.650, S 2, T 34} C_DIS
LIN {X 476.848, Y -584.449, Z 622.670, A 179.210, B 0.540, C -122.650, S 2, T 34} C_DIS
LIN {X 477.195, Y -584.269, Z 622.386, A 179.210, B 0.540, C -122.650, S 2, T 34} C_DIS
LIN {X 477.542, Y -584.090, Z 622.102, A 179.210, B 0.540, C -122.650, S 2, T 34} C_DIS
LIN {X 477.547, Y -583.905, Z 621.814, A 179.210, B 0.540, C -122.650, S 2, T 34} C_DIS
LIN {X 477.894, Y -583.726, Z 621.530, A 179.210, B 0.540, C -122.650, S 2, T 34} C_DIS
LIN {X 478.240, Y -583.546, Z 621.245, A 179.210, B 0.540, C -122.650, S 2, T 34} C_DIS
LIN {X 478.587, Y -583.367, Z 620.961, A 179.210, B 0.540, C -122.650, S 2, T 34} C_DIS
LIN {X 478.592, Y -583.183, Z 620.673, A 179.210, B 0.540, C -122.650, S 2, T 34} C_DIS
LIN {X 478.939, Y -583.003, Z 620.389, A 179.210, B 0.540, C -122.650, S 2, T 34} C_DIS
LIN {X 479.286, Y -582.824, Z 620.105, A 179.210, B 0.540, C -122.650, S 2, T 34} C_DIS
LIN {X 479.633, Y -582.644, Z 619.820, A 179.210, B 0.540, C -122.650, S 2, T 34} C_DIS
LIN {X 479.638, Y -582.460, Z 619.533, A 179.210, B 0.540, C -122.650, S 2, T 34} C_DIS
LIN {X 479.985, Y -582.280, Z 619.248, A 179.210, B 0.540, C -122.650, S 2, T 34} C_DIS
LIN {X 480.332, Y -582.101, Z 618.964, A 179.210, B 0.540, C -122.650, S 2, T 34} C_DIS
LIN {X 480.678, Y -581.921, Z 618.680, A 179.210, B 0.540, C -122.650, S 2, T 34} C_DIS
LIN {X 481.025, Y -581.742, Z 618.395, A 179.210, B 0.540, C -122.650, S 2, T 34} C_DIS
LIN {X 481.372, Y -581.562, Z 618.111, A 179.210, B 0.540, C -122.650, S 2, T 34} C_DIS
LIN {X 481.719, Y -581.383, Z 617.826, A 179.210, B 0.540, C -122.650, S 2, T 34} C_DIS
LIN {X 481.724, Y -581.199, Z 617.539, A 179.210, B 0.540, C -122.650, S 2, T 34} C_DIS
LIN {X 482.071, Y -581.019, Z 617.254, A 179.210, B 0.540, C -122.650, S 2, T 34} C_DIS
LIN {X 482.417, Y -580.839, Z 616.970, A 179.210, B 0.540, C -122.650, S 2, T 34} C_DIS
LIN {X 482.764, Y -580.660, Z 616.686, A 179.210, B 0.540, C -122.650, S 2, T 34} C_DIS
LIN {X 483.111, Y -580.480, Z 616.401, A 179.210, B 0.540, C -122.650, S 2, T 34} C_DIS
LIN {X 483.458, Y -580.301, Z 616.117, A 179.210, B 0.540, C -122.650, S 2, T 34} C_DIS
LIN {X 483.805, Y -580.121, Z 615.833, A 179.210, B 0.540, C -122.650, S 2, T 34} C_DIS
LIN {X 484.151, Y -579.942, Z 615.548, A 179.210, B 0.540, C -122.650, S 2, T 34} C_DIS
LIN {X 484.498, Y -579.762, Z 615.264, A 179.210, B 0.540, C -122.650, S 2, T 34} C_DIS
LIN {X 484.845, Y -579.583, Z 614.980, A 179.210, B 0.540, C -122.650, S 2, T 34} C_DIS
LIN {X 485.192, Y -579.403, Z 614.695, A 179.210, B 0.540, C -122.650, S 2, T 34} C_DIS
LIN {X 485.539, Y -579.224, Z 614.411, A 179.210, B 0.540, C -122.650, S 2, T 34} C_DIS
LIN {X 485.880, Y -579.229, Z 614.414, A 179.210, B 0.540, C -122.650, S 2, T 34} C_DIS
LIN {X 486.227, Y -579.049, Z 614.130, A 179.210, B 0.540, C -122.650, S 2, T 34} C_DIS
LIN {X 486.574, Y -578.869, Z 613.845, A 179.210, B 0.540, C -122.650, S 2, T 34} C_DIS
LIN {X 486.920, Y -578.690, Z 613.561, A 179.210, B 0.540, C -122.650, S 2, T 34} C_DIS
LIN {X 487.267, Y -578.510, Z 613.277, A 179.210, B 0.540, C -122.650, S 2, T 34} C_DIS
LIN {X 487.614, Y -578.331, Z 612.992, A 179.210, B 0.540, C -122.650, S 2, T 34} C_DIS
LIN {X 487.955, Y -578.336, Z 612.995, A 179.210, B 0.540, C -122.650, S 2, T 34} C_DIS
LIN {X 488.302, Y -578.156, Z 612.711, A 179.210, B 0.540, C -122.650, S 2, T 34} C_DIS
LIN {X 488.649, Y -577.977, Z 612.427, A 179.210, B 0.540, C -122.650, S 2, T 34} C_DIS
LIN {X 488.996, Y -577.797, Z 612.142, A 179.210, B 0.540, C -122.650, S 2, T 34} C_DIS
LIN {X 489.337, Y -577.802, Z 612.145, A 179.210, B 0.540, C -122.650, S 2, T 34} C_DIS
LIN {X 489.684, Y -577.622, Z 611.861, A 179.210, B 0.540, C -122.650, S 2, T 34} C_DIS
LIN {X 490.031, Y -577.443, Z 611.577, A 179.210, B 0.540, C -122.650, S 2, T 34} C_DIS
LIN {X 490.372, Y -577.447, Z 611.580, A 179.210, B 0.540, C -122.650, S 2, T 34} C_DIS
LIN {X 490.719, Y -577.268, Z 611.296, A 179.210, B 0.540, C -122.650, S 2, T 34} C_DIS
LIN {X 491.066, Y -577.088, Z 611.011, A 179.210, B 0.540, C -122.650, S 2, T 34} C_DIS
LIN {X 491.408, Y -577.093, Z 611.014, A 179.210, B 0.540, C -122.650, S 2, T 34} C_DIS
LIN {X 491.754, Y -576.914, Z 610.730, A 179.210, B 0.540, C -122.650, S 2, T 34} C_DIS
LIN {X 492.101, Y -576.734, Z 610.446, A 179.210, B 0.540, C -122.650, S 2, T 34} C_DIS
LIN {X 492.443, Y -576.739, Z 610.449, A 179.210, B 0.540, C -122.650, S 2, T 34} C_DIS
LIN {X 492.789, Y -576.559, Z 610.165, A 179.210, B 0.540, C -122.650, S 2, T 34} C_DIS
LIN {X 493.131, Y -576.564, Z 610.168, A 179.210, B 0.540, C -122.650, S 2, T 34} C_DIS
LIN {X 493.478, Y -576.384, Z 609.883, A 179.210, B 0.540, C -122.650, S 2, T 34} C_DIS
LIN {X 493.825, Y -576.205, Z 609.599, A 179.210, B 0.540, C -122.650, S 2, T 34} C_DIS
LIN {X 494.166, Y -576.210, Z 609.602, A 179.210, B 0.540, C -122.650, S 2, T 34} C_DIS
LIN {X 494.513, Y -576.030, Z 609.318, A 179.210, B 0.540, C -122.650, S 2, T 34} C_DIS
LIN {X 494.854, Y -576.035, Z 609.321, A 179.210, B 0.540, C -122.650, S 2, T 34} C_DIS
LIN {X 495.201, Y -575.855, Z 609.037, A 179.210, B 0.540, C -122.650, S 2, T 34} C_DIS
LIN {X 495.543, Y -575.860, Z 609.040, A 179.210, B 0.540, C -122.650, S 2, T 34} C_DIS
LIN {X 495.889, Y -575.681, Z 608.756, A 179.210, B 0.540, C -122.650, S 2, T 34} C_DIS
LIN {X 496.231, Y -575.685, Z 608.759, A 179.210, B 0.540, C -122.650, S 2, T 34} C_DIS
LIN {X 496.578, Y -575.506, Z 608.474, A 179.210, B 0.540, C -122.650, S 2, T 34} C_DIS
LIN {X 496.919, Y -575.510, Z 608.478, A 179.210, B 0.540, C -122.650, S 2, T 34} C_DIS
LIN {X 497.266, Y -575.331, Z 608.193, A 179.210, B 0.540, C -122.650, S 2, T 34} C_DIS
LIN {X 497.608, Y -575.336, Z 608.196, A 179.210, B 0.540, C -122.650, S 2, T 34} C_DIS
LIN {X 497.949, Y -575.340, Z 608.200, A 179.210, B 0.540, C -122.650, S 2, T 34} C_DIS
LIN {X 498.296, Y -575.161, Z 607.915, A 179.210, B 0.540, C -122.650, S 2, T 34} C_DIS
LIN {X 498.637, Y -575.165, Z 607.919, A 179.210, B 0.540, C -122.650, S 2, T 34} C_DIS
LIN {X 498.979, Y -575.170, Z 607.922, A 179.210, B 0.540, C -122.650, S 2, T 34} C_DIS
LIN {X 499.326, Y -574.991, Z 607.637, A 179.210, B 0.540, C -122.650, S 2, T 34} C_DIS
LIN {X 499.667, Y -574.995, Z 607.641, A 179.210, B 0.540, C -122.650, S 2, T 34} C_DIS
LIN {X 500.014, Y -574.816, Z 607.356, A 179.210, B 0.540, C -122.650, S 2, T 34} C_DIS
LIN {X 500.356, Y -574.821, Z 607.359, A 179.210, B 0.540, C -122.650, S 2, T 34} C_DIS
LIN {X 500.697, Y -574.825, Z 607.363, A 179.210, B 0.540, C -122.650, S 2, T 34} C_DIS
LIN {X 501.044, Y -574.646, Z 607.078, A 179.210, B 0.540, C -122.650, S 2, T 34} C_DIS
LIN {X 501.385, Y -574.650, Z 607.082, A 179.210, B 0.540, C -122.650, S 2, T 34} C_DIS
LIN {X 501.727, Y -574.655, Z 607.085, A 179.210, B 0.540, C -122.650, S 2, T 34} C_DIS
LIN {X 502.069, Y -574.660, Z 607.088, A 179.210, B 0.540, C -122.650, S 2, T 34} C_DIS
LIN {X 502.415, Y -574.480, Z 606.804, A 179.210, B 0.540, C -122.650, S 2, T 34} C_DIS
LIN {X 502.757, Y -574.485, Z 606.807, A 179.210, B 0.540, C -122.650, S 2, T 34} C_DIS
LIN {X 503.098, Y -574.490, Z 606.810, A 179.210, B 0.540, C -122.650, S 2, T 34} C_DIS
LIN {X 503.445, Y -574.310, Z 606.526, A 179.210, B 0.540, C -122.650, S 2, T 34} C_DIS
LIN {X 503.787, Y -574.315, Z 606.529, A 179.210, B 0.540, C -122.650, S 2, T 34} C_DIS
LIN {X 504.128, Y -574.320, Z 606.532, A 179.210, B 0.540, C -122.650, S 2, T 34} C_DIS
LIN {X 504.470, Y -574.324, Z 606.535, A 179.210, B 0.540, C -122.650, S 2, T 34} C_DIS
LIN {X 504.811, Y -574.329, Z 606.539, A 179.210, B 0.540, C -122.650, S 2, T 34} C_DIS
LIN {X 505.153, Y -574.334, Z 606.542, A 179.210, B 0.540, C -122.650, S 2, T 34} C_DIS
LIN {X 505.494, Y -574.339, Z 606.545, A 179.210, B 0.540, C -122.650, S 2, T 34} C_DIS
LIN {X 505.841, Y -574.159, Z 606.261, A 179.210, B 0.540, C -122.650, S 2, T 34} C_DIS
LIN {X 506.183, Y -574.164, Z 606.264, A 179.210, B 0.540, C -122.650, S 2, T 34} C_DIS
LIN {X 506.524, Y -574.168, Z 606.267, A 179.210, B 0.540, C -122.650, S 2, T 34} C_DIS
LIN {X 506.866, Y -574.173, Z 606.270, A 179.210, B 0.540, C -122.650, S 2, T 34} C_DIS
LIN {X 507.207, Y -574.178, Z 606.273, A 179.210, B 0.540, C -122.650, S 2, T 34} C_DIS
LIN {X 507.549, Y -574.183, Z 606.277, A 179.210, B 0.540, C -122.650, S 2, T 34} C_DIS
LIN {X 507.890, Y -574.187, Z 606.280, A 179.210, B 0.540, C -122.650, S 2, T 34} C_DIS
LIN {X 508.227, Y -574.376, Z 606.571, A 179.210, B 0.540, C -122.650, S 2, T 34} C_DIS
LIN {X 508.568, Y -574.381, Z 606.574, A 179.210, B 0.540, C -122.650, S 2, T 34} C_DIS
LIN {X 508.910, Y -574.386, Z 606.577, A 179.210, B 0.540, C -122.650, S 2, T 34} C_DIS
LIN {X 509.251, Y -574.390, Z 606.580, A 179.210, B 0.540, C -122.650, S 2, T 34} C_DIS
LIN {X 509.593, Y -574.395, Z 606.584, A 179.210, B 0.540, C -122.650, S 2, T 34} C_DIS
LIN {X 509.929, Y -574.584, Z 606.874, A 179.210, B 0.540, C -122.650, S 2, T 34} C_DIS
LIN {X 510.271, Y -574.589, Z 606.878, A 179.210, B 0.540, C -122.650, S 2, T 34} C_DIS
LIN {X 510.612, Y -574.593, Z 606.881, A 179.210, B 0.540, C -122.650, S 2, T 34} C_DIS
LIN {X 510.948, Y -574.782, Z 607.172, A 179.210, B 0.540, C -122.650, S 2, T 34} C_DIS
LIN {X 511.290, Y -574.787, Z 607.175, A 179.210, B 0.540, C -122.650, S 2, T 34} C_DIS
LIN {X 511.626, Y -574.976, Z 607.466, A 179.210, B 0.540, C -122.650, S 2, T 34} C_DIS
LIN {X 511.968, Y -574.981, Z 607.469, A 179.210, B 0.540, C -122.650, S 2, T 34} C_DIS
LIN {X 512.304, Y -575.170, Z 607.760, A 179.210, B 0.540, C -122.650, S 2, T 34} C_DIS
LIN {X 512.640, Y -575.359, Z 608.051, A 179.210, B 0.540, C -122.650, S 2, T 34} C_DIS
LIN {X 512.982, Y -575.363, Z 608.054, A 179.210, B 0.540, C -122.650, S 2, T 34} C_DIS
LIN {X 513.318, Y -575.552, Z 608.345, A 179.210, B 0.540, C -122.650, S 2, T 34} C_DIS
LIN {X 513.654, Y -575.741, Z 608.635, A 179.210, B 0.540, C -122.650, S 2, T 34} C_DIS
LIN {X 513.996, Y -575.746, Z 608.639, A 179.210, B 0.540, C -122.650, S 2, T 34} C_DIS
LIN {X 514.332, Y -575.935, Z 608.929, A 179.210, B 0.540, C -122.650, S 2, T 34} C_DIS
LIN {X 514.668, Y -576.124, Z 609.220, A 179.210, B 0.540, C -122.650, S 2, T 34} C_DIS
LIN {X 515.005, Y -576.313, Z 609.511, A 179.210, B 0.540, C -122.650, S 2, T 34} C_DIS
LIN {X 515.341, Y -576.502, Z 609.802, A 179.210, B 0.540, C -122.650, S 2, T 34} C_DIS
LIN {X 515.677, Y -576.691, Z 610.093, A 179.210, B 0.540, C -122.650, S 2, T 34} C_DIS
LIN {X 516.019, Y -576.695, Z 610.096, A 179.210, B 0.540, C -122.650, S 2, T 34} C_DIS
LIN {X 516.355, Y -576.884, Z 610.387, A 179.210, B 0.540, C -122.650, S 2, T 34} C_DIS
LIN {X 516.691, Y -577.073, Z 610.677, A 179.210, B 0.540, C -122.650, S 2, T 34} C_DIS
LIN {X 517.028, Y -577.262, Z 610.968, A 179.210, B 0.540, C -122.650, S 2, T 34} C_DIS
LIN {X 517.364, Y -577.451, Z 611.259, A 179.210, B 0.540, C -122.650, S 2, T 34} C_DIS
LIN {X 517.700, Y -577.640, Z 611.550, A 179.210, B 0.540, C -122.650, S 2, T 34} C_DIS
LIN {X 518.042, Y -577.645, Z 611.553, A 179.210, B 0.540, C -122.650, S 2, T 34} C_DIS
LIN {X 518.378, Y -577.834, Z 611.844, A 179.210, B 0.540, C -122.650, S 2, T 34} C_DIS
LIN {X 518.714, Y -578.023, Z 612.135, A 179.210, B 0.540, C -122.650, S 2, T 34} C_DIS
LIN {X 519.051, Y -578.211, Z 612.426, A 179.210, B 0.540, C -122.650, S 2, T 34} C_DIS
LIN {X 519.387, Y -578.400, Z 612.716, A 179.210, B 0.540, C -122.650, S 2, T 34} C_DIS
LIN {X 519.723, Y -578.589, Z 613.007, A 179.210, B 0.540, C -122.650, S 2, T 34} C_DIS
LIN {X 520.059, Y -578.778, Z 613.298, A 179.210, B 0.540, C -122.650, S 2, T 34} C_DIS
LIN {X 520.401, Y -578.783, Z 613.301, A 179.210, B 0.540, C -122.650, S 2, T 34} C_DIS
LIN {X 520.737, Y -578.972, Z 613.592, A 179.210, B 0.540, C -122.650, S 2, T 34} C_DIS
LIN {X 521.073, Y -579.161, Z 613.883, A 179.210, B 0.540, C -122.650, S 2, T 34} C_DIS
LIN {X 521.415, Y -579.166, Z 613.886, A 179.210, B 0.540, C -122.650, S 2, T 34} C_DIS
LIN {X 521.751, Y -579.355, Z 614.177, A 179.210, B 0.540, C -122.650, S 2, T 34} C_DIS
LIN {X 522.088, Y -579.543, Z 614.468, A 179.210, B 0.540, C -122.650, S 2, T 34} C_DIS
LIN {X 522.429, Y -579.548, Z 614.471, A 179.210, B 0.540, C -122.650, S 2, T 34} C_DIS
LIN {X 522.765, Y -579.737, Z 614.762, A 179.210, B 0.540, C -122.650, S 2, T 34} C_DIS
LIN {X 523.107, Y -579.742, Z 614.765, A 179.210, B 0.540, C -122.650, S 2, T 34} C_DIS
LIN {X 523.443, Y -579.931, Z 615.056, A 179.210, B 0.540, C -122.650, S 2, T 34} C_DIS
LIN {X 523.785, Y -579.935, Z 615.059, A 179.210, B 0.540, C -122.650, S 2, T 34} C_DIS
LIN {X 524.121, Y -580.124, Z 615.350, A 179.210, B 0.540, C -122.650, S 2, T 34} C_DIS
LIN {X 524.463, Y -580.129, Z 615.353, A 179.210, B 0.540, C -122.650, S 2, T 34} C_DIS
LIN {X 524.799, Y -580.318, Z 615.644, A 179.210, B 0.540, C -122.650, S 2, T 34} C_DIS
LIN {X 525.140, Y -580.323, Z 615.647, A 179.210, B 0.540, C -122.650, S 2, T 34} C_DIS
LIN {X 525.482, Y -580.327, Z 615.650, A 179.210, B 0.540, C -122.650, S 2, T 34} C_DIS
LIN {X 525.823, Y -580.332, Z 615.653, A 179.210, B 0.540, C -122.650, S 2, T 34} C_DIS
LIN {X 526.160, Y -580.521, Z 615.944, A 179.210, B 0.540, C -122.650, S 2, T 34} C_DIS
LIN {X 526.501, Y -580.526, Z 615.947, A 179.210, B 0.540, C -122.650, S 2, T 34} C_DIS
LIN {X 526.843, Y -580.531, Z 615.951, A 179.210, B 0.540, C -122.650, S 2, T 34} C_DIS
LIN {X 527.184, Y -580.535, Z 615.954, A 179.210, B 0.540, C -122.650, S 2, T 34} C_DIS
LIN {X 527.521, Y -580.724, Z 616.245, A 179.210, B 0.540, C -122.650, S 2, T 34} C_DIS
LIN {X 527.862, Y -580.729, Z 616.248, A 179.210, B 0.540, C -122.650, S 2, T 34} C_DIS
LIN {X 528.204, Y -580.734, Z 616.251, A 179.210, B 0.540, C -122.650, S 2, T 34} C_DIS
LIN {X 528.545, Y -580.738, Z 616.254, A 179.210, B 0.540, C -122.650, S 2, T 34} C_DIS
LIN {X 528.887, Y -580.743, Z 616.258, A 179.210, B 0.540, C -122.650, S 2, T 34} C_DIS
LIN {X 529.228, Y -580.748, Z 616.261, A 179.210, B 0.540, C -122.650, S 2, T 34} C_DIS
LIN {X 529.570, Y -580.752, Z 616.264, A 179.210, B 0.540, C -122.650, S 2, T 34} C_DIS
LIN {X 529.911, Y -580.757, Z 616.267, A 179.210, B 0.540, C -122.650, S 2, T 34} C_DIS
LIN {X 530.253, Y -580.762, Z 616.270, A 179.210, B 0.540, C -122.650, S 2, T 34} C_DIS
LIN {X 530.594, Y -580.767, Z 616.274, A 179.210, B 0.540, C -122.650, S 2, T 34} C_DIS
LIN {X 530.936, Y -580.771, Z 616.277, A 179.210, B 0.540, C -122.650, S 2, T 34} C_DIS
LIN {X 531.277, Y -580.776, Z 616.280, A 179.210, B 0.540, C -122.650, S 2, T 34} C_DIS
LIN {X 531.619, Y -580.781, Z 616.283, A 179.210, B 0.540, C -122.650, S 2, T 34} C_DIS
LIN {X 531.960, Y -580.785, Z 616.287, A 179.210, B 0.540, C -122.650, S 2, T 34} C_DIS
LIN {X 532.302, Y -580.790, Z 616.290, A 179.210, B 0.540, C -122.650, S 2, T 34} C_DIS
LIN {X 532.643, Y -580.795, Z 616.293, A 179.210, B 0.540, C -122.650, S 2, T 34} C_DIS
LIN {X 532.985, Y -580.800, Z 616.296, A 179.210, B 0.540, C -122.650, S 2, T 34} C_DIS
LIN {X 533.327, Y -580.804, Z 616.299, A 179.210, B 0.540, C -122.650, S 2, T 34} C_DIS
LIN {X 533.668, Y -580.809, Z 616.303, A 179.210, B 0.540, C -122.650, S 2, T 34} C_DIS
LIN {X 534.015, Y -580.629, Z 616.018, A 179.210, B 0.540, C -122.650, S 2, T 34} C_DIS
LIN {X 534.356, Y -580.634, Z 616.021, A 179.210, B 0.540, C -122.650, S 2, T 34} C_DIS
LIN {X 534.698, Y -580.639, Z 616.025, A 179.210, B 0.540, C -122.650, S 2, T 34} C_DIS
LIN {X 535.039, Y -580.644, Z 616.028, A 179.210, B 0.540, C -122.650, S 2, T 34} C_DIS
LIN {X 535.381, Y -580.648, Z 616.031, A 179.210, B 0.540, C -122.650, S 2, T 34} C_DIS
LIN {X 535.723, Y -580.653, Z 616.034, A 179.210, B 0.540, C -122.650, S 2, T 34} C_DIS
LIN {X 536.064, Y -580.658, Z 616.038, A 179.210, B 0.540, C -122.650, S 2, T 34} C_DIS
LIN {X 536.411, Y -580.478, Z 615.753, A 179.210, B 0.540, C -122.650, S 2, T 34} C_DIS
LIN {X 536.752, Y -580.483, Z 615.756, A 179.210, B 0.540, C -122.650, S 2, T 34} C_DIS
LIN {X 537.094, Y -580.488, Z 615.760, A 179.210, B 0.540, C -122.650, S 2, T 34} C_DIS
LIN {X 537.435, Y -580.492, Z 615.763, A 179.210, B 0.540, C -122.650, S 2, T 34} C_DIS
LIN {X 537.777, Y -580.497, Z 615.766, A 179.210, B 0.540, C -122.650, S 2, T 34} C_DIS
LIN {X 538.124, Y -580.317, Z 615.482, A 179.210, B 0.540, C -122.650, S 2, T 34} C_DIS
LIN {X 538.465, Y -580.322, Z 615.485, A 179.210, B 0.540, C -122.650, S 2, T 34} C_DIS
LIN {X 538.807, Y -580.327, Z 615.488, A 179.210, B 0.540, C -122.650, S 2, T 34} C_DIS
LIN {X 539.148, Y -580.332, Z 615.491, A 179.210, B 0.540, C -122.650, S 2, T 34} C_DIS
LIN {X 539.495, Y -580.152, Z 615.207, A 179.210, B 0.540, C -122.650, S 2, T 34} C_DIS
LIN {X 539.837, Y -580.157, Z 615.210, A 179.210, B 0.540, C -122.650, S 2, T 34} C_DIS
LIN {X 540.178, Y -580.162, Z 615.213, A 179.210, B 0.540, C -122.650, S 2, T 34} C_DIS
LIN {X 540.525, Y -579.982, Z 614.929, A 179.210, B 0.540, C -122.650, S 2, T 34} C_DIS
LIN {X 540.866, Y -579.987, Z 614.932, A 179.210, B 0.540, C -122.650, S 2, T 34} C_DIS
LIN {X 541.208, Y -579.991, Z 614.936, A 179.210, B 0.540, C -122.650, S 2, T 34} C_DIS
LIN {X 541.555, Y -579.812, Z 614.651, A 179.210, B 0.540, C -122.650, S 2, T 34} C_DIS
LIN {X 541.896, Y -579.817, Z 614.654, A 179.210, B 0.540, C -122.650, S 2, T 34} C_DIS
LIN {X 542.238, Y -579.821, Z 614.658, A 179.210, B 0.540, C -122.650, S 2, T 34} C_DIS
LIN {X 542.585, Y -579.642, Z 614.373, A 179.210, B 0.540, C -122.650, S 2, T 34} C_DIS
LIN {X 542.926, Y -579.647, Z 614.376, A 179.210, B 0.540, C -122.650, S 2, T 34} C_DIS
LIN {X 543.268, Y -579.651, Z 614.380, A 179.210, B 0.540, C -122.650, S 2, T 34} C_DIS
LIN {X 543.614, Y -579.472, Z 614.095, A 179.210, B 0.540, C -122.650, S 2, T 34} C_DIS
LIN {X 543.956, Y -579.476, Z 614.099, A 179.210, B 0.540, C -122.650, S 2, T 34} C_DIS
LIN {X 544.298, Y -579.481, Z 614.102, A 179.210, B 0.540, C -122.650, S 2, T 34} C_DIS
LIN {X 544.644, Y -579.302, Z 613.817, A 179.210, B 0.540, C -122.650, S 2, T 34} C_DIS
LIN {X 544.986, Y -579.306, Z 613.821, A 179.210, B 0.540, C -122.650, S 2, T 34} C_DIS
LIN {X 545.327, Y -579.311, Z 613.824, A 179.210, B 0.540, C -122.650, S 2, T 34} C_DIS
LIN {X 545.674, Y -579.132, Z 613.539, A 179.210, B 0.540, C -122.650, S 2, T 34} C_DIS
LIN {X 546.016, Y -579.136, Z 613.543, A 179.210, B 0.540, C -122.650, S 2, T 34} C_DIS
LIN {X 546.362, Y -578.957, Z 613.258, A 179.210, B 0.540, C -122.650, S 2, T 34} C_DIS
LIN {X 546.704, Y -578.961, Z 613.261, A 179.210, B 0.540, C -122.650, S 2, T 34} C_DIS
LIN {X 547.051, Y -578.782, Z 612.977, A 179.210, B 0.540, C -122.650, S 2, T 34} C_DIS
LIN {X 547.392, Y -578.787, Z 612.980, A 179.210, B 0.540, C -122.650, S 2, T 34} C_DIS
LIN {X 547.739, Y -578.607, Z 612.696, A 179.210, B 0.540, C -122.650, S 2, T 34} C_DIS
LIN {X 548.081, Y -578.612, Z 612.699, A 179.210, B 0.540, C -122.650, S 2, T 34} C_DIS
LIN {X 548.427, Y -578.432, Z 612.415, A 179.210, B 0.540, C -122.650, S 2, T 34} C_DIS
LIN {X 548.769, Y -578.437, Z 612.418, A 179.210, B 0.540, C -122.650, S 2, T 34} C_DIS
LIN {X 549.110, Y -578.442, Z 612.421, A 179.210, B 0.540, C -122.650, S 2, T 34} C_DIS
LIN {X 549.457, Y -578.262, Z 612.137, A 179.210, B 0.540, C -122.650, S 2, T 34} C_DIS
LIN {X 549.804, Y -578.083, Z 611.853, A 179.210, B 0.540, C -122.650, S 2, T 34} C_DIS
LIN {X 550.146, Y -578.087, Z 611.856, A 179.210, B 0.540, C -122.650, S 2, T 34} C_DIS
LIN {X 550.492, Y -577.908, Z 611.571, A 179.210, B 0.540, C -122.650, S 2, T 34} C_DIS
LIN {X 550.834, Y -577.913, Z 611.575, A 179.210, B 0.540, C -122.650, S 2, T 34} C_DIS
LIN {X 551.181, Y -577.733, Z 611.290, A 179.210, B 0.540, C -122.650, S 2, T 34} C_DIS
LIN {X 551.522, Y -577.738, Z 611.293, A 179.210, B 0.540, C -122.650, S 2, T 34} C_DIS
LIN {X 551.869, Y -577.558, Z 611.009, A 179.210, B 0.540, C -122.650, S 2, T 34} C_DIS
LIN {X 552.211, Y -577.563, Z 611.012, A 179.210, B 0.540, C -122.650, S 2, T 34} C_DIS
LIN {X 552.557, Y -577.383, Z 610.728, A 179.210, B 0.540, C -122.650, S 2, T 34} C_DIS
LIN {X 552.904, Y -577.204, Z 610.444, A 179.210, B 0.540, C -122.650, S 2, T 34} C_DIS
LIN {X 553.246, Y -577.209, Z 610.447, A 179.210, B 0.540, C -122.650, S 2, T 34} C_DIS
LIN {X 553.592, Y -577.029, Z 610.162, A 179.210, B 0.540, C -122.650, S 2, T 34} C_DIS
LIN {X 553.939, Y -576.850, Z 609.878, A 179.210, B 0.540, C -122.650, S 2, T 34} C_DIS
LIN {X 554.281, Y -576.854, Z 609.881, A 179.210, B 0.540, C -122.650, S 2, T 34} C_DIS
LIN {X 554.627, Y -576.675, Z 609.597, A 179.210, B 0.540, C -122.650, S 2, T 34} C_DIS
LIN {X 554.974, Y -576.495, Z 609.312, A 179.210, B 0.540, C -122.650, S 2, T 34} C_DIS
LIN {X 555.321, Y -576.316, Z 609.028, A 179.210, B 0.540, C -122.650, S 2, T 34} C_DIS
LIN {X 555.663, Y -576.320, Z 609.031, A 179.210, B 0.540, C -122.650, S 2, T 34} C_DIS
LIN {X 556.009, Y -576.141, Z 608.747, A 179.210, B 0.540, C -122.650, S 2, T 34} C_DIS
LIN {X 556.356, Y -575.961, Z 608.463, A 179.210, B 0.540, C -122.650, S 2, T 34} C_DIS
LIN {X 556.703, Y -575.782, Z 608.178, A 179.210, B 0.540, C -122.650, S 2, T 34} C_DIS
LIN {X 557.050, Y -575.602, Z 607.894, A 179.210, B 0.540, C -122.650, S 2, T 34} C_DIS
LIN {X 557.396, Y -575.423, Z 607.609, A 179.210, B 0.540, C -122.650, S 2, T 34} C_DIS
LIN {X 557.743, Y -575.243, Z 607.325, A 179.210, B 0.540, C -122.650, S 2, T 34} C_DIS
LIN {X 558.090, Y -575.064, Z 607.041, A 179.210, B 0.540, C -122.650, S 2, T 34} C_DIS
LIN {X 558.437, Y -574.884, Z 606.756, A 179.210, B 0.540, C -122.650, S 2, T 34} C_DIS
LIN {X 558.784, Y -574.705, Z 606.472, A 179.210, B 0.540, C -122.650, S 2, T 34} C_DIS
LIN {X 558.789, Y -574.521, Z 606.184, A 179.210, B 0.540, C -122.650, S 2, T 34} C_DIS
LIN {X 559.136, Y -574.341, Z 605.900, A 179.210, B 0.540, C -122.650, S 2, T 34} C_DIS
LIN {X 559.482, Y -574.161, Z 605.616, A 179.210, B 0.540, C -122.650, S 2, T 34} C_DIS
LIN {X 559.829, Y -573.982, Z 605.331, A 179.210, B 0.540, C -122.650, S 2, T 34} C_DIS
LIN {X 560.176, Y -573.802, Z 605.047, A 179.210, B 0.540, C -122.650, S 2, T 34} C_DIS
LIN {X 560.181, Y -573.618, Z 604.759, A 179.210, B 0.540, C -122.650, S 2, T 34} C_DIS
LIN {X 560.181, Y -573.618, Z 604.759, A 179.210, B 0.540, C -122.650, S 2, T 34} C_DIS
LIN {X 560.214, Y -569.408, Z 607.457, A 179.210, B 0.540, C -122.650, S 2, T 34} C_DIS
LIN {X 481.084, Y -564.631, Z 600.958, A 179.210, B 0.540, C -122.650, S 2, T 34} C_DIS
LIN {X 481.051, Y -568.841, Z 598.261, A 179.210, B 0.540, C -122.650, S 2, T 34} C_DIS
LIN {X 481.398, Y -568.662, Z 597.976, A 179.210, B 0.540, C -122.650, S 2, T 34} C_DIS
LIN {X 481.403, Y -568.477, Z 597.689, A 179.210, B 0.540, C -122.650, S 2, T 34} C_DIS
LIN {X 481.750, Y -568.298, Z 597.404, A 179.210, B 0.540, C -122.650, S 2, T 34} C_DIS
LIN {X 482.097, Y -568.118, Z 597.120, A 179.210, B 0.540, C -122.650, S 2, T 34} C_DIS
LIN {X 482.102, Y -567.934, Z 596.832, A 179.210, B 0.540, C -122.650, S 2, T 34} C_DIS
LIN {X 482.449, Y -567.755, Z 596.548, A 179.210, B 0.540, C -122.650, S 2, T 34} C_DIS
LIN {X 482.796, Y -567.575, Z 596.264, A 179.210, B 0.540, C -122.650, S 2, T 34} C_DIS
LIN {X 482.801, Y -567.391, Z 595.976, A 179.210, B 0.540, C -122.650, S 2, T 34} C_DIS
LIN {X 483.148, Y -567.211, Z 595.692, A 179.210, B 0.540, C -122.650, S 2, T 34} C_DIS
LIN {X 483.494, Y -567.032, Z 595.407, A 179.210, B 0.540, C -122.650, S 2, T 34} C_DIS
LIN {X 483.500, Y -566.848, Z 595.120, A 179.210, B 0.540, C -122.650, S 2, T 34} C_DIS
LIN {X 483.846, Y -566.668, Z 594.835, A 179.210, B 0.540, C -122.650, S 2, T 34} C_DIS
LIN {X 484.193, Y -566.488, Z 594.551, A 179.210, B 0.540, C -122.650, S 2, T 34} C_DIS
LIN {X 484.540, Y -566.309, Z 594.267, A 179.210, B 0.540, C -122.650, S 2, T 34} C_DIS
LIN {X 484.887, Y -566.129, Z 593.982, A 179.210, B 0.540, C -122.650, S 2, T 34} C_DIS
LIN {X 484.892, Y -565.945, Z 593.695, A 179.210, B 0.540, C -122.650, S 2, T 34} C_DIS
LIN {X 485.239, Y -565.766, Z 593.410, A 179.210, B 0.540, C -122.650, S 2, T 34} C_DIS
LIN {X 485.586, Y -565.586, Z 593.126, A 179.210, B 0.540, C -122.650, S 2, T 34} C_DIS
LIN {X 485.932, Y -565.407, Z 592.842, A 179.210, B 0.540, C -122.650, S 2, T 34} C_DIS
LIN {X 486.279, Y -565.227, Z 592.557, A 179.210, B 0.540, C -122.650, S 2, T 34} C_DIS
LIN {X 486.626, Y -565.048, Z 592.273, A 179.210, B 0.540, C -122.650, S 2, T 34} C_DIS
LIN {X 486.973, Y -564.868, Z 591.988, A 179.210, B 0.540, C -122.650, S 2, T 34} C_DIS
LIN {X 487.319, Y -564.689, Z 591.704, A 179.210, B 0.540, C -122.650, S 2, T 34} C_DIS
LIN {X 487.666, Y -564.509, Z 591.420, A 179.210, B 0.540, C -122.650, S 2, T 34} C_DIS
LIN {X 488.013, Y -564.330, Z 591.135, A 179.210, B 0.540, C -122.650, S 2, T 34} C_DIS
LIN {X 488.360, Y -564.150, Z 590.851, A 179.210, B 0.540, C -122.650, S 2, T 34} C_DIS
LIN {X 488.707, Y -563.971, Z 590.567, A 179.210, B 0.540, C -122.650, S 2, T 34} C_DIS
LIN {X 489.053, Y -563.791, Z 590.282, A 179.210, B 0.540, C -122.650, S 2, T 34} C_DIS
LIN {X 489.400, Y -563.611, Z 589.998, A 179.210, B 0.540, C -122.650, S 2, T 34} C_DIS
LIN {X 489.747, Y -563.432, Z 589.713, A 179.210, B 0.540, C -122.650, S 2, T 34} C_DIS
LIN {X 490.094, Y -563.252, Z 589.429, A 179.210, B 0.540, C -122.650, S 2, T 34} C_DIS
LIN {X 490.441, Y -563.073, Z 589.145, A 179.210, B 0.540, C -122.650, S 2, T 34} C_DIS
LIN {X 490.787, Y -562.893, Z 588.860, A 179.210, B 0.540, C -122.650, S 2, T 34} C_DIS
LIN {X 491.134, Y -562.714, Z 588.576, A 179.210, B 0.540, C -122.650, S 2, T 34} C_DIS
LIN {X 491.481, Y -562.534, Z 588.292, A 179.210, B 0.540, C -122.650, S 2, T 34} C_DIS
LIN {X 491.822, Y -562.539, Z 588.295, A 179.210, B 0.540, C -122.650, S 2, T 34} C_DIS
LIN {X 492.169, Y -562.360, Z 588.010, A 179.210, B 0.540, C -122.650, S 2, T 34} C_DIS
LIN {X 492.516, Y -562.180, Z 587.726, A 179.210, B 0.540, C -122.650, S 2, T 34} C_DIS
LIN {X 492.863, Y -562.000, Z 587.442, A 179.210, B 0.540, C -122.650, S 2, T 34} C_DIS
LIN {X 493.210, Y -561.821, Z 587.157, A 179.210, B 0.540, C -122.650, S 2, T 34} C_DIS
LIN {X 493.556, Y -561.641, Z 586.873, A 179.210, B 0.540, C -122.650, S 2, T 34} C_DIS
LIN {X 493.898, Y -561.646, Z 586.876, A 179.210, B 0.540, C -122.650, S 2, T 34} C_DIS
LIN {X 494.245, Y -561.467, Z 586.592, A 179.210, B 0.540, C -122.650, S 2, T 34} C_DIS
LIN {X 494.591, Y -561.287, Z 586.307, A 179.210, B 0.540, C -122.650, S 2, T 34} C_DIS
LIN {X 494.938, Y -561.108, Z 586.023, A 179.210, B 0.540, C -122.650, S 2, T 34} C_DIS
LIN {X 495.285, Y -560.928, Z 585.739, A 179.210, B 0.540, C -122.650, S 2, T 34} C_DIS
LIN {X 495.626, Y -560.933, Z 585.742, A 179.210, B 0.540, C -122.650, S 2, T 34} C_DIS
LIN {X 495.973, Y -560.753, Z 585.458, A 179.210, B 0.540, C -122.650, S 2, T 34} C_DIS
LIN {X 496.320, Y -560.574, Z 585.173, A 179.210, B 0.540, C -122.650, S 2, T 34} C_DIS
LIN {X 496.667, Y -560.394, Z 584.889, A 179.210, B 0.540, C -122.650, S 2, T 34} C_DIS
LIN {X 496.667, Y -560.394, Z 584.889, A 179.210, B 0.540, C -122.650, S 2, T 34} C_DIS
LIN {X 496.699, Y -556.184, Z 587.586, A 179.210, B 0.540, C -122.650, S 2, T 34} C_DIS
LIN {X 497.388, Y -556.010, Z 587.305, A 179.210, B 0.540, C -122.650, S 2, T 34} C_DIS
LIN {X 497.355, Y -560.219, Z 584.608, A 179.210, B 0.540, C -122.650, S 2, T 34} C_DIS
LIN {X 497.702, Y -560.040, Z 584.323, A 179.210, B 0.540, C -122.650, S 2, T 34} C_DIS
LIN {X 498.043, Y -560.045, Z 584.327, A 179.210, B 0.540, C -122.650, S 2, T 34} C_DIS
LIN {X 498.390, Y -559.865, Z 584.042, A 179.210, B 0.540, C -122.650, S 2, T 34} C_DIS
LIN {X 498.737, Y -559.686, Z 583.758, A 179.210, B 0.540, C -122.650, S 2, T 34} C_DIS
LIN {X 499.084, Y -559.506, Z 583.473, A 179.210, B 0.540, C -122.650, S 2, T 34} C_DIS
LIN {X 499.425, Y -559.511, Z 583.477, A 179.210, B 0.540, C -122.650, S 2, T 34} C_DIS
LIN {X 499.772, Y -559.331, Z 583.192, A 179.210, B 0.540, C -122.650, S 2, T 34} C_DIS
LIN {X 500.114, Y -559.336, Z 583.195, A 179.210, B 0.540, C -122.650, S 2, T 34} C_DIS
LIN {X 500.460, Y -559.156, Z 582.911, A 179.210, B 0.540, C -122.650, S 2, T 34} C_DIS
LIN {X 500.802, Y -559.161, Z 582.914, A 179.210, B 0.540, C -122.650, S 2, T 34} C_DIS
LIN {X 501.149, Y -558.982, Z 582.630, A 179.210, B 0.540, C -122.650, S 2, T 34} C_DIS
LIN {X 501.490, Y -558.986, Z 582.633, A 179.210, B 0.540, C -122.650, S 2, T 34} C_DIS
LIN {X 501.837, Y -558.807, Z 582.349, A 179.210, B 0.540, C -122.650, S 2, T 34} C_DIS
LIN {X 502.184, Y -558.627, Z 582.064, A 179.210, B 0.540, C -122.650, S 2, T 34} C_DIS
LIN {X 502.525, Y -558.632, Z 582.068, A 179.210, B 0.540, C -122.650, S 2, T 34} C_DIS
LIN {X 502.872, Y -558.452, Z 581.783, A 179.210, B 0.540, C -122.650, S 2, T 34} C_DIS
LIN {X 503.214, Y -558.457, Z 581.786, A 179.210, B 0.540, C -122.650, S 2, T 34} C_DIS
LIN {X 503.560, Y -558.278, Z 581.502, A 179.210, B 0.540, C -122.650, S 2, T 34} C_DIS
LIN {X 503.902, Y -558.282, Z 581.505, A 179.210, B 0.540, C -122.650, S 2, T 34} C_DIS
LIN {X 504.249, Y -558.103, Z 581.221, A 179.210, B 0.540, C -122.650, S 2, T 34} C_DIS
LIN {X 504.590, Y -558.108, Z 581.224, A 179.210, B 0.540, C -122.650, S 2, T 34} C_DIS
LIN {X 504.937, Y -557.928, Z 580.940, A 179.210, B 0.540, C -122.650, S 2, T 34} C_DIS
LIN {X 505.279, Y -557.933, Z 580.943, A 179.210, B 0.540, C -122.650, S 2, T 34} C_DIS
LIN {X 505.625, Y -557.753, Z 580.659, A 179.210, B 0.540, C -122.650, S 2, T 34} C_DIS
LIN {X 505.967, Y -557.758, Z 580.662, A 179.210, B 0.540, C -122.650, S 2, T 34} C_DIS
LIN {X 506.308, Y -557.763, Z 580.665, A 179.210, B 0.540, C -122.650, S 2, T 34} C_DIS
LIN {X 506.655, Y -557.583, Z 580.381, A 179.210, B 0.540, C -122.650, S 2, T 34} C_DIS
LIN {X 506.997, Y -557.588, Z 580.384, A 179.210, B 0.540, C -122.650, S 2, T 34} C_DIS
LIN {X 507.344, Y -557.408, Z 580.100, A 179.210, B 0.540, C -122.650, S 2, T 34} C_DIS
LIN {X 507.685, Y -557.413, Z 580.103, A 179.210, B 0.540, C -122.650, S 2, T 34} C_DIS
LIN {X 508.027, Y -557.418, Z 580.106, A 179.210, B 0.540, C -122.650, S 2, T 34} C_DIS
LIN {X 508.373, Y -557.238, Z 579.822, A 179.210, B 0.540, C -122.650, S 2, T 34} C_DIS
LIN {X 508.715, Y -557.243, Z 579.825, A 179.210, B 0.540, C -122.650, S 2, T 34} C_DIS
LIN {X 509.056, Y -557.248, Z 579.828, A 179.210, B 0.540, C -122.650, S 2, T 34} C_DIS
LIN {X 509.398, Y -557.252, Z 579.831, A 179.210, B 0.540, C -122.650, S 2, T 34} C_DIS
LIN {X 509.745, Y -557.073, Z 579.547, A 179.210, B 0.540, C -122.650, S 2, T 34} C_DIS
LIN {X 510.086, Y -557.078, Z 579.550, A 179.210, B 0.540, C -122.650, S 2, T 34} C_DIS
LIN {X 510.428, Y -557.082, Z 579.553, A 179.210, B 0.540, C -122.650, S 2, T 34} C_DIS
LIN {X 510.769, Y -557.087, Z 579.557, A 179.210, B 0.540, C -122.650, S 2, T 34} C_DIS
LIN {X 511.111, Y -557.092, Z 579.560, A 179.210, B 0.540, C -122.650, S 2, T 34} C_DIS
LIN {X 511.452, Y -557.096, Z 579.563, A 179.210, B 0.540, C -122.650, S 2, T 34} C_DIS
LIN {X 511.794, Y -557.101, Z 579.566, A 179.210, B 0.540, C -122.650, S 2, T 34} C_DIS
LIN {X 512.135, Y -557.106, Z 579.569, A 179.210, B 0.540, C -122.650, S 2, T 34} C_DIS
LIN {X 512.482, Y -556.926, Z 579.285, A 179.210, B 0.540, C -122.650, S 2, T 34} C_DIS
LIN {X 512.824, Y -556.931, Z 579.288, A 179.210, B 0.540, C -122.650, S 2, T 34} C_DIS
LIN {X 513.165, Y -556.936, Z 579.292, A 179.210, B 0.540, C -122.650, S 2, T 34} C_DIS
LIN {X 513.507, Y -556.940, Z 579.295, A 179.210, B 0.540, C -122.650, S 2, T 34} C_DIS
LIN {X 513.848, Y -556.945, Z 579.298, A 179.210, B 0.540, C -122.650, S 2, T 34} C_DIS
LIN {X 514.190, Y -556.950, Z 579.301, A 179.210, B 0.540, C -122.650, S 2, T 34} C_DIS
LIN {X 514.526, Y -557.139, Z 579.592, A 179.210, B 0.540, C -122.650, S 2, T 34} C_DIS
LIN {X 514.868, Y -557.143, Z 579.595, A 179.210, B 0.540, C -122.650, S 2, T 34} C_DIS
LIN {X 515.209, Y -557.148, Z 579.598, A 179.210, B 0.540, C -122.650, S 2, T 34} C_DIS
LIN {X 515.551, Y -557.153, Z 579.602, A 179.210, B 0.540, C -122.650, S 2, T 34} C_DIS
LIN {X 515.892, Y -557.158, Z 579.605, A 179.210, B 0.540, C -122.650, S 2, T 34} C_DIS
LIN {X 516.234, Y -557.162, Z 579.608, A 179.210, B 0.540, C -122.650, S 2, T 34} C_DIS
LIN {X 516.575, Y -557.167, Z 579.611, A 179.210, B 0.540, C -122.650, S 2, T 34} C_DIS
LIN {X 516.912, Y -557.356, Z 579.902, A 179.210, B 0.540, C -122.650, S 2, T 34} C_DIS
LIN {X 517.253, Y -557.361, Z 579.905, A 179.210, B 0.540, C -122.650, S 2, T 34} C_DIS
LIN {X 517.595, Y -557.365, Z 579.909, A 179.210, B 0.540, C -122.650, S 2, T 34} C_DIS
LIN {X 517.936, Y -557.370, Z 579.912, A 179.210, B 0.540, C -122.650, S 2, T 34} C_DIS
LIN {X 518.273, Y -557.559, Z 580.203, A 179.210, B 0.540, C -122.650, S 2, T 34} C_DIS
LIN {X 518.614, Y -557.564, Z 580.206, A 179.210, B 0.540, C -122.650, S 2, T 34} C_DIS
LIN {X 518.950, Y -557.753, Z 580.497, A 179.210, B 0.540, C -122.650, S 2, T 34} C_DIS
LIN {X 519.292, Y -557.757, Z 580.500, A 179.210, B 0.540, C -122.650, S 2, T 34} C_DIS
LIN {X 519.633, Y -557.762, Z 580.503, A 179.210, B 0.540, C -122.650, S 2, T 34} C_DIS
LIN {X 519.970, Y -557.951, Z 580.794, A 179.210, B 0.540, C -122.650, S 2, T 34} C_DIS
LIN {X 520.311, Y -557.956, Z 580.797, A 179.210, B 0.540, C -122.650, S 2, T 34} C_DIS
LIN {X 520.647, Y -558.145, Z 581.088, A 179.210, B 0.540, C -122.650, S 2, T 34} C_DIS
LIN {X 520.989, Y -558.149, Z 581.091, A 179.210, B 0.540, C -122.650, S 2, T 34} C_DIS
LIN {X 521.325, Y -558.338, Z 581.382, A 179.210, B 0.540, C -122.650, S 2, T 34} C_DIS
LIN {X 521.662, Y -558.527, Z 581.673, A 179.210, B 0.540, C -122.650, S 2, T 34} C_DIS
LIN {X 521.998, Y -558.716, Z 581.964, A 179.210, B 0.540, C -122.650, S 2, T 34} C_DIS
LIN {X 522.339, Y -558.721, Z 581.967, A 179.210, B 0.540, C -122.650, S 2, T 34} C_DIS
LIN {X 522.676, Y -558.910, Z 582.258, A 179.210, B 0.540, C -122.650, S 2, T 34} C_DIS
LIN {X 523.017, Y -558.915, Z 582.261, A 179.210, B 0.540, C -122.650, S 2, T 34} C_DIS
LIN {X 523.353, Y -559.104, Z 582.552, A 179.210, B 0.540, C -122.650, S 2, T 34} C_DIS
LIN {X 523.690, Y -559.292, Z 582.842, A 179.210, B 0.540, C -122.650, S 2, T 34} C_DIS
LIN {X 524.031, Y -559.297, Z 582.846, A 179.210, B 0.540, C -122.650, S 2, T 34} C_DIS
LIN {X 524.368, Y -559.486, Z 583.136, A 179.210, B 0.540, C -122.650, S 2, T 34} C_DIS
LIN {X 524.704, Y -559.675, Z 583.427, A 179.210, B 0.540, C -122.650, S 2, T 34} C_DIS
LIN {X 525.040, Y -559.864, Z 583.718, A 179.210, B 0.540, C -122.650, S 2, T 34} C_DIS
LIN {X 525.382, Y -559.869, Z 583.721, A 179.210, B 0.540, C -122.650, S 2, T 34} C_DIS
LIN {X 525.718, Y -560.058, Z 584.012, A 179.210, B 0.540, C -122.650, S 2, T 34} C_DIS
LIN {X 526.054, Y -560.247, Z 584.303, A 179.210, B 0.540, C -122.650, S 2, T 34} C_DIS
LIN {X 526.391, Y -560.436, Z 584.594, A 179.210, B 0.540, C -122.650, S 2, T 34} C_DIS
LIN {X 526.732, Y -560.440, Z 584.597, A 179.210, B 0.540, C -122.650, S 2, T 34} C_DIS
LIN {X 527.068, Y -560.629, Z 584.888, A 179.210, B 0.540, C -122.650, S 2, T 34} C_DIS
LIN {X 527.405, Y -560.818, Z 585.179, A 179.210, B 0.540, C -122.650, S 2, T 34} C_DIS
LIN {X 527.746, Y -560.823, Z 585.182, A 179.210, B 0.540, C -122.650, S 2, T 34} C_DIS
LIN {X 528.082, Y -561.012, Z 585.473, A 179.210, B 0.540, C -122.650, S 2, T 34} C_DIS
LIN {X 528.419, Y -561.201, Z 585.763, A 179.210, B 0.540, C -122.650, S 2, T 34} C_DIS
LIN {X 528.755, Y -561.390, Z 586.054, A 179.210, B 0.540, C -122.650, S 2, T 34} C_DIS
LIN {X 529.096, Y -561.394, Z 586.057, A 179.210, B 0.540, C -122.650, S 2, T 34} C_DIS
LIN {X 529.433, Y -561.583, Z 586.348, A 179.210, B 0.540, C -122.650, S 2, T 34} C_DIS
LIN {X 529.769, Y -561.772, Z 586.639, A 179.210, B 0.540, C -122.650, S 2, T 34} C_DIS
LIN {X 530.111, Y -561.777, Z 586.642, A 179.210, B 0.540, C -122.650, S 2, T 34} C_DIS
LIN {X 530.447, Y -561.966, Z 586.933, A 179.210, B 0.540, C -122.650, S 2, T 34} C_DIS
LIN {X 530.788, Y -561.971, Z 586.936, A 179.210, B 0.540, C -122.650, S 2, T 34} C_DIS
LIN {X 531.125, Y -562.159, Z 587.227, A 179.210, B 0.540, C -122.650, S 2, T 34} C_DIS
LIN {X 531.466, Y -562.164, Z 587.230, A 179.210, B 0.540, C -122.650, S 2, T 34} C_DIS
LIN {X 531.802, Y -562.353, Z 587.521, A 179.210, B 0.540, C -122.650, S 2, T 34} C_DIS
LIN {X 532.144, Y -562.358, Z 587.524, A 179.210, B 0.540, C -122.650, S 2, T 34} C_DIS
LIN {X 532.486, Y -562.363, Z 587.528, A 179.210, B 0.540, C -122.650, S 2, T 34} C_DIS
LIN {X 532.822, Y -562.551, Z 587.818, A 179.210, B 0.540, C -122.650, S 2, T 34} C_DIS
LIN {X 533.163, Y -562.556, Z 587.822, A 179.210, B 0.540, C -122.650, S 2, T 34} C_DIS
LIN {X 533.500, Y -562.745, Z 588.112, A 179.210, B 0.540, C -122.650, S 2, T 34} C_DIS
LIN {X 533.841, Y -562.750, Z 588.116, A 179.210, B 0.540, C -122.650, S 2, T 34} C_DIS
LIN {X 534.183, Y -562.755, Z 588.119, A 179.210, B 0.540, C -122.650, S 2, T 34} C_DIS
LIN {X 534.524, Y -562.759, Z 588.122, A 179.210, B 0.540, C -122.650, S 2, T 34} C_DIS
LIN {X 534.861, Y -562.948, Z 588.413, A 179.210, B 0.540, C -122.650, S 2, T 34} C_DIS
LIN {X 535.202, Y -562.953, Z 588.416, A 179.210, B 0.540, C -122.650, S 2, T 34} C_DIS
LIN {X 535.544, Y -562.958, Z 588.419, A 179.210, B 0.540, C -122.650, S 2, T 34} C_DIS
LIN {X 535.880, Y -563.147, Z 588.710, A 179.210, B 0.540, C -122.650, S 2, T 34} C_DIS
LIN {X 536.221, Y -563.151, Z 588.713, A 179.210, B 0.540, C -122.650, S 2, T 34} C_DIS
LIN {X 536.563, Y -563.156, Z 588.717, A 179.210, B 0.540, C -122.650, S 2, T 34} C_DIS
LIN {X 536.904, Y -563.161, Z 588.720, A 179.210, B 0.540, C -122.650, S 2, T 34} C_DIS
LIN {X 537.246, Y -563.165, Z 588.723, A 179.210, B 0.540, C -122.650, S 2, T 34} C_DIS
LIN {X 537.588, Y -563.170, Z 588.726, A 179.210, B 0.540, C -122.650, S 2, T 34} C_DIS
LIN {X 537.924, Y -563.359, Z 589.017, A 179.210, B 0.540, C -122.650, S 2, T 34} C_DIS
LIN {X 538.265, Y -563.364, Z 589.020, A 179.210, B 0.540, C -122.650, S 2, T 34} C_DIS
LIN {X 538.607, Y -563.368, Z 589.023, A 179.210, B 0.540, C -122.650, S 2, T 34} C_DIS
LIN {X 538.948, Y -563.373, Z 589.027, A 179.210, B 0.540, C -122.650, S 2, T 34} C_DIS
LIN {X 539.290, Y -563.378, Z 589.030, A 179.210, B 0.540, C -122.650, S 2, T 34} C_DIS
LIN {X 539.631, Y -563.383, Z 589.033, A 179.210, B 0.540, C -122.650, S 2, T 34} C_DIS
LIN {X 539.973, Y -563.387, Z 589.036, A 179.210, B 0.540, C -122.650, S 2, T 34} C_DIS
LIN {X 540.314, Y -563.392, Z 589.040, A 179.210, B 0.540, C -122.650, S 2, T 34} C_DIS
LIN {X 540.656, Y -563.397, Z 589.043, A 179.210, B 0.540, C -122.650, S 2, T 34} C_DIS
LIN {X 540.998, Y -563.401, Z 589.046, A 179.210, B 0.540, C -122.650, S 2, T 34} C_DIS
LIN {X 541.339, Y -563.406, Z 589.049, A 179.210, B 0.540, C -122.650, S 2, T 34} C_DIS
LIN {X 541.681, Y -563.411, Z 589.052, A 179.210, B 0.540, C -122.650, S 2, T 34} C_DIS
LIN {X 542.017, Y -563.600, Z 589.343, A 179.210, B 0.540, C -122.650, S 2, T 34} C_DIS
LIN {X 542.358, Y -563.604, Z 589.346, A 179.210, B 0.540, C -122.650, S 2, T 34} C_DIS
LIN {X 542.700, Y -563.609, Z 589.350, A 179.210, B 0.540, C -122.650, S 2, T 34} C_DIS
LIN {X 543.047, Y -563.430, Z 589.065, A 179.210, B 0.540, C -122.650, S 2, T 34} C_DIS
LIN {X 543.388, Y -563.434, Z 589.069, A 179.210, B 0.540, C -122.650, S 2, T 34} C_DIS
LIN {X 543.730, Y -563.439, Z 589.072, A 179.210, B 0.540, C -122.650, S 2, T 34} C_DIS
LIN {X 544.071, Y -563.444, Z 589.075, A 179.210, B 0.540, C -122.650, S 2, T 34} C_DIS
LIN {X 544.413, Y -563.449, Z 589.078, A 179.210, B 0.540, C -122.650, S 2, T 34} C_DIS
LIN {X 544.754, Y -563.453, Z 589.081, A 179.210, B 0.540, C -122.650, S 2, T 34} C_DIS
LIN {X 545.096, Y -563.458, Z 589.085, A 179.210, B 0.540, C -122.650, S 2, T 34} C_DIS
LIN {X 545.437, Y -563.463, Z 589.088, A 179.210, B 0.540, C -122.650, S 2, T 34} C_DIS
LIN {X 545.779, Y -563.467, Z 589.091, A 179.210, B 0.540, C -122.650, S 2, T 34} C_DIS
LIN {X 546.121, Y -563.472, Z 589.094, A 179.210, B 0.540, C -122.650, S 2, T 34} C_DIS
LIN {X 546.462, Y -563.477, Z 589.097, A 179.210, B 0.540, C -122.650, S 2, T 34} C_DIS
LIN {X 546.804, Y -563.481, Z 589.101, A 179.210, B 0.540, C -122.650, S 2, T 34} C_DIS
LIN {X 547.145, Y -563.486, Z 589.104, A 179.210, B 0.540, C -122.650, S 2, T 34} C_DIS
LIN {X 547.492, Y -563.307, Z 588.820, A 179.210, B 0.540, C -122.650, S 2, T 34} C_DIS
LIN {X 547.833, Y -563.311, Z 588.823, A 179.210, B 0.540, C -122.650, S 2, T 34} C_DIS
LIN {X 548.175, Y -563.316, Z 588.826, A 179.210, B 0.540, C -122.650, S 2, T 34} C_DIS
LIN {X 548.516, Y -563.321, Z 588.829, A 179.210, B 0.540, C -122.650, S 2, T 34} C_DIS
LIN {X 548.858, Y -563.326, Z 588.832, A 179.210, B 0.540, C -122.650, S 2, T 34} C_DIS
LIN {X 549.205, Y -563.146, Z 588.548, A 179.210, B 0.540, C -122.650, S 2, T 34} C_DIS
LIN {X 549.546, Y -563.151, Z 588.551, A 179.210, B 0.540, C -122.650, S 2, T 34} C_DIS
LIN {X 549.888, Y -563.155, Z 588.555, A 179.210, B 0.540, C -122.650, S 2, T 34} C_DIS
LIN {X 550.229, Y -563.160, Z 588.558, A 179.210, B 0.540, C -122.650, S 2, T 34} C_DIS
LIN {X 550.576, Y -562.981, Z 588.273, A 179.210, B 0.540, C -122.650, S 2, T 34} C_DIS
LIN {X 550.918, Y -562.985, Z 588.277, A 179.210, B 0.540, C -122.650, S 2, T 34} C_DIS
LIN {X 551.259, Y -562.990, Z 588.280, A 179.210, B 0.540, C -122.650, S 2, T 34} C_DIS
LIN {X 551.601, Y -562.995, Z 588.283, A 179.210, B 0.540, C -122.650, S 2, T 34} C_DIS
LIN {X 551.948, Y -562.815, Z 587.999, A 179.210, B 0.540, C -122.650, S 2, T 34} C_DIS
LIN {X 552.289, Y -562.820, Z 588.002, A 179.210, B 0.540, C -122.650, S 2, T 34} C_DIS
LIN {X 552.631, Y -562.825, Z 588.005, A 179.210, B 0.540, C -122.650, S 2, T 34} C_DIS
LIN {X 552.977, Y -562.645, Z 587.721, A 179.210, B 0.540, C -122.650, S 2, T 34} C_DIS
LIN {X 553.319, Y -562.650, Z 587.724, A 179.210, B 0.540, C -122.650, S 2, T 34} C_DIS
LIN {X 553.666, Y -562.470, Z 587.440, A 179.210, B 0.540, C -122.650, S 2, T 34} C_DIS
LIN {X 554.007, Y -562.475, Z 587.443, A 179.210, B 0.540, C -122.650, S 2, T 34} C_DIS
LIN {X 554.354, Y -562.295, Z 587.158, A 179.210, B 0.540, C -122.650, S 2, T 34} C_DIS
LIN {X 554.696, Y -562.300, Z 587.162, A 179.210, B 0.540, C -122.650, S 2, T 34} C_DIS
LIN {X 555.042, Y -562.121, Z 586.877, A 179.210, B 0.540, C -122.650, S 2, T 34} C_DIS
LIN {X 555.384, Y -562.125, Z 586.880, A 179.210, B 0.540, C -122.650, S 2, T 34} C_DIS
LIN {X 555.731, Y -561.946, Z 586.596, A 179.210, B 0.540, C -122.650, S 2, T 34} C_DIS
LIN {X 556.072, Y -561.951, Z 586.599, A 179.210, B 0.540, C -122.650, S 2, T 34} C_DIS
LIN {X 556.419, Y -561.771, Z 586.315, A 179.210, B 0.540, C -122.650, S 2, T 34} C_DIS
LIN {X 556.760, Y -561.776, Z 586.318, A 179.210, B 0.540, C -122.650, S 2, T 34} C_DIS
LIN {X 557.107, Y -561.596, Z 586.034, A 179.210, B 0.540, C -122.650, S 2, T 34} C_DIS
LIN {X 557.454, Y -561.417, Z 585.749, A 179.210, B 0.540, C -122.650, S 2, T 34} C_DIS
LIN {X 557.801, Y -561.237, Z 585.465, A 179.210, B 0.540, C -122.650, S 2, T 34} C_DIS
LIN {X 558.142, Y -561.242, Z 585.468, A 179.210, B 0.540, C -122.650, S 2, T 34} C_DIS
LIN {X 558.489, Y -561.062, Z 585.184, A 179.210, B 0.540, C -122.650, S 2, T 34} C_DIS
LIN {X 558.836, Y -560.883, Z 584.900, A 179.210, B 0.540, C -122.650, S 2, T 34} C_DIS
LIN {X 559.183, Y -560.703, Z 584.615, A 179.210, B 0.540, C -122.650, S 2, T 34} C_DIS
LIN {X 559.529, Y -560.524, Z 584.331, A 179.210, B 0.540, C -122.650, S 2, T 34} C_DIS
LIN {X 559.876, Y -560.344, Z 584.046, A 179.210, B 0.540, C -122.650, S 2, T 34} C_DIS
LIN {X 560.223, Y -560.165, Z 583.762, A 179.210, B 0.540, C -122.650, S 2, T 34} C_DIS
LIN {X 560.228, Y -559.981, Z 583.474, A 179.210, B 0.540, C -122.650, S 2, T 34} C_DIS
LIN {X 560.575, Y -559.801, Z 583.190, A 179.210, B 0.540, C -122.650, S 2, T 34} C_DIS
LIN {X 560.922, Y -559.622, Z 582.906, A 179.210, B 0.540, C -122.650, S 2, T 34} C_DIS
LIN {X 560.927, Y -559.437, Z 582.618, A 179.210, B 0.540, C -122.650, S 2, T 34} C_DIS
LIN {X 561.274, Y -559.258, Z 582.334, A 179.210, B 0.540, C -122.650, S 2, T 34} C_DIS
LIN {X 561.621, Y -559.078, Z 582.049, A 179.210, B 0.540, C -122.650, S 2, T 34} C_DIS
LIN {X 561.626, Y -558.894, Z 581.762, A 179.210, B 0.540, C -122.650, S 2, T 34} C_DIS
LIN {X 561.973, Y -558.715, Z 581.477, A 179.210, B 0.540, C -122.650, S 2, T 34} C_DIS
LIN {X 562.319, Y -558.535, Z 581.193, A 179.210, B 0.540, C -122.650, S 2, T 34} C_DIS
LIN {X 562.325, Y -558.351, Z 580.905, A 179.210, B 0.540, C -122.650, S 2, T 34} C_DIS
LIN {X 562.330, Y -558.167, Z 580.618, A 179.210, B 0.540, C -122.650, S 2, T 34} C_DIS
LIN {X 562.677, Y -557.987, Z 580.334, A 179.210, B 0.540, C -122.650, S 2, T 34} C_DIS
LIN {X 562.682, Y -557.803, Z 580.046, A 179.210, B 0.540, C -122.650, S 2, T 34} C_DIS
LIN {X 562.346, Y -557.614, Z 579.755, A 179.210, B 0.540, C -122.650, S 2, T 34} C_DIS
LIN {X 562.351, Y -557.430, Z 579.468, A 179.210, B 0.540, C -122.650, S 2, T 34} C_DIS
LIN {X 562.351, Y -557.430, Z 579.468, A 179.210, B 0.540, C -122.650, S 2, T 34} C_DIS
LIN {X 562.384, Y -553.220, Z 582.165, A 179.210, B 0.540, C -122.650, S 2, T 34} C_DIS
LIN {X 479.864, Y -547.474, Z 574.196, A 179.210, B 0.540, C -122.650, S 2, T 34} C_DIS
LIN {X 479.832, Y -551.684, Z 571.499, A 179.210, B 0.540, C -122.650, S 2, T 34} C_DIS
LIN {X 480.179, Y -551.505, Z 571.214, A 179.210, B 0.540, C -122.650, S 2, T 34} C_DIS
LIN {X 480.184, Y -551.321, Z 570.927, A 179.210, B 0.540, C -122.650, S 2, T 34} C_DIS
LIN {X 480.189, Y -551.136, Z 570.639, A 179.210, B 0.540, C -122.650, S 2, T 34} C_DIS
